Information listing created by	11dha
Date	15-Apr-2023 14:45:48
Current work part	D:\DHANUSH_FILES\Dhanush-UBC\MECH 542\Project\02\Project 2 Files\Final Part with Operations .prt
Node name	dhanushkk

%
OFinal ToolPath
(PART  FILE  NAME: FINAL PART WITH OPERATIONS .PRT )
(PROGRAMMED  UNIT: IN)
(PROGRAMMED    BY: 11DHA)
(PROGRAMMED    ON: SAT APR 15,2023,14:45           )
(NX POSTPROCESSOR: HAAS_UMC750_5AXIS_MILL_IN )
 
(----------------- TOOL TABLE SUMMARY --------------------)
(TOOL-NO.   TOOL-NAME                   DIAMETER   OFFSET )
(   1       MILL                         0.750      0     )
(   2       MILL_MULTI_AXIS              0.750      0     )
(   3       BALL_MILL                    0.236      0     )
(--------------END OF TOOL TABLE SUMMARY -----------------)
 
N5 G40 G17 G94 G98 G90 G00 G49 G20
 
( *** TOOL CHANGE: T01: MILL *** )
 
( OPER: CAVITY_MILL_INSIDE )
N10 G53 G00 Z0.0
N15 G91 G28 X0.0 Y0.0
N20 G91 G28 B0.0 C0.0
N25 G90
N30 T1 M06
N35 T2
N40 M01
N45 G53 G00 Z0.0
N50 S1253 M03
N55 G17 G54 G90
N60 M11 ( C-AXIS UNLOCK )
N65 M13 ( B-AXIS UNLOCK )
N70 G00 B0.0 C0.0
N75 M10 ( C-AXIS LOCK )
N80 M12 ( B-AXIS LOCK )
N85 G90 G00 X2.3803 Y2.2763 M08
N90 G43 H01 D01 Z3.1
N95 G01 X2.2701 Y2.3302 Z3.0671 F9.8
N100 X2.1471 Y2.3384 Z3.0342
N105 X2.0293 Y2.3022 Z3.0013
N110 X1.9321 Y2.2265 Z2.9684
N115 X1.8681 Y2.1212 Z2.9355
N120 X1.849 Y2. Z2.9026
N125 Y1.849
N130 X2.151
N135 Y2.151
N140 X1.849
N145 Y2.
N150 X1.324
N155 Y1.324
N160 X2.676
N165 Y2.676
N170 X1.324
N175 Y2.
N180 X.799
N185 Y.8754
N190 G03 X.8154 Y.8153 I.0932 J-.0067
N195 G03 X.8729 Y.799 I.0517 J.0725
N200 G01 X3.1246
N205 G03 X3.1847 Y.8154 I.0067 J.0932
N210 G03 X3.201 Y.8729 I-.0725 J.0517
N215 G01 Y3.1246
N220 G03 X3.1845 Y3.1847 I-.0931 J.0067
N225 G03 X3.1272 Y3.201 I-.0516 J-.0723
N230 G01 X.8754
N235 G03 X.8238 Y3.1912 I-.0007 J-.136
N240 G03 X.799 Y3.1391 I.038 J-.0501
N245 G01 Y2.
N250 G03 X1.174 Y1.625 I.375 J0.0
N255 G01 Z3.0026
N260 G00 Z3.1394
N265 X1.7237 Y2.4127
N270 Z3.0026
N275 G01 X1.6698 Y2.3025 Z2.9697
N280 X1.6616 Y2.1796 Z2.9368
N285 X1.6978 Y2.0618 Z2.9039
N290 X1.7735 Y1.9645 Z2.871
N295 X1.8788 Y1.9006 Z2.8381
N300 X2. Y1.8814 Z2.8052
N305 X2.1186
N310 Y2.1186
N315 X1.8814
N320 Y1.8814
N325 X2.
N330 Y1.3564
N335 X2.6436
N340 Y2.6436
N345 X1.3564
N350 Y1.3564
N355 X2.
N360 Y.8314
N365 X3.0957
N370 G03 X3.1521 Y.848 I.0025 J.0956
N375 G03 X3.1686 Y.9041 I-.076 J.0528
N380 G01 Y3.0958
N385 G03 X3.152 Y3.1521 I-.0955 J.0025
N390 G03 X3.096 Y3.1686 I-.0527 J-.0757
N395 G01 X.9043
N400 G03 X.8479 Y3.152 I-.0025 J-.0956
N405 G03 X.8314 Y3.1066 I.0682 J-.0505
N410 G01 Y.9043
N415 G03 X.848 Y.8479 I.0956 J-.0025
N420 G03 X.9041 Y.8314 I.0528 J.076
N425 G01 X2.
N430 G03 X2.375 Y1.2064 I0.0 J.375
N435 G01 Z2.9052
N440 G00 Z3.1394
N445 X1.5548 Y1.7237
N450 Z2.9052
N455 G01 X1.665 Y1.6698 Z2.8724
N460 X1.788 Y1.6616 Z2.8395
N465 X1.9058 Y1.6978 Z2.8066
N470 X2.003 Y1.7735 Z2.7737
N475 X2.067 Y1.8788 Z2.7408
N480 X2.0861 Y2. Z2.7079
N485 Y2.0861
N490 X1.9139
N495 Y1.9139
N500 X2.0861
N505 Y2.
N510 X2.6111
N515 Y2.6111
N520 X1.3889
N525 Y1.3889
N530 X2.6111
N535 Y2.
N540 X3.1361
N545 Y3.0732
N550 G03 X3.0735 Y3.1361 I-.0607 J.0022
N555 G01 X.9268
N560 G03 X.8639 Y3.0742 I-.0022 J-.0607
N565 G01 Y.9258
N570 G03 X.9258 Y.8639 I.0606 J-.0013
N575 G01 X3.0742
N580 G03 X3.1361 Y.9266 I.0013 J.0607
N585 G01 Y2.
N590 G03 X2.7611 Y2.375 I-.375 J0.0
N595 G01 Z2.8079
N600 G00 Z3.1394
N605 X1.7237 Y2.4777
N610 Z2.8079
N615 G01 X1.6698 Y2.3675 Z2.775
N620 X1.6616 Y2.2445 Z2.7421
N625 X1.6978 Y2.1267 Z2.7092
N630 X1.7735 Y2.0294 Z2.6763
N635 X1.8788 Y1.9655 Z2.6434
N640 X2. Y1.9463 Z2.6105
N645 X2.0537
N650 Y2.0537
N655 X1.9463
N660 Y1.9463
N665 X2.
N670 Y1.4213
N675 X2.5787
N680 Y2.5787
N685 X1.4213
N690 Y1.4213
N695 X2.
N700 Y.8963
N705 X3.0283
N710 G03 X3.0867 Y.9131 I.0027 J.1006
N715 G03 X3.1037 Y.9737 I-.0848 J.0564
N720 G01 Y3.0283
N725 G03 X3.0869 Y3.0867 I-.1007 J.0027
N730 G03 X3.0262 Y3.1037 I-.0564 J-.0849
N735 G01 X.9717
N740 G03 X.9133 Y3.0869 I-.0027 J-.1007
N745 G03 X.8963 Y3.0263 I.0849 J-.0564
N750 G01 Y.9717
N755 G03 X.9131 Y.9133 I.1006 J-.0027
N760 G03 X.9737 Y.8963 I.0564 J.0848
N765 G01 X2.
N770 G03 X2.375 Y1.2713 I0.0 J.375
N775 G01 Z2.7105
N780 G00 Z3.1394
N785 X2.5101 Y2.2763
N790 Z2.7105
N795 G01 X2.3999 Y2.3302 Z2.6776
N800 X2.2769 Y2.3384 Z2.6447
N805 X2.1591 Y2.3022 Z2.6118
N810 X2.0619 Y2.2265 Z2.5789
N815 X1.9979 Y2.1212 Z2.546
N820 X1.9788 Y2. Z2.5131
N825 Y1.9788
N830 X2.0212
N835 Y2.0212
N840 X1.9788
N845 Y2.
N850 X1.4538
N855 Y1.4538
N860 X2.5462
N865 Y2.5462
N870 X1.4538
N875 Y2.
N880 X.9288
N885 Y1.0032
N890 G03 X.9459 Y.9459 I.0971 J-.0023
N895 G03 X1.0064 Y.9288 I.0563 J.0838
N900 G01 X2.9968
N905 G03 X3.0541 Y.9459 I.0023 J.0971
N910 G03 X3.0712 Y1.0064 I-.0838 J.0563
N915 G01 Y2.9968
N920 G03 X3.0541 Y3.0541 I-.0972 J.0022
N925 G03 X2.9937 Y3.0712 I-.0563 J-.0837
N930 G01 X1.0032
N935 G03 X.9459 Y3.0541 I-.0022 J-.0972
N940 G03 X.9288 Y2.9936 I.0838 J-.0563
N945 G01 Y2.
N950 G03 X1.3038 Y1.625 I.375 J0.0
N955 G01 Z2.6131
N960 G00 Z3.1394
N965 X1.6074 Y1.7237
N970 Z2.6131
N975 G01 X1.7176 Y1.6698 Z2.5802
N980 X1.8406 Y1.6616 Z2.5473
N985 X1.9584 Y1.6978 Z2.5144
N990 X2.0557 Y1.7735 Z2.4815
N995 X2.1196 Y1.8788 Z2.4486
N1000 X2.1387 Y2. Z2.4157
N1005 Y2.1387
N1010 X1.8613
N1015 Y1.8613
N1020 X2.1387
N1025 Y2.
N1030 X2.5137
N1035 Y2.5137
N1040 X1.4863
N1045 Y1.4863
N1050 X2.5137
N1055 Y2.
N1060 X3.0387
N1065 Y2.976
N1070 G03 X2.976 Y3.0387 I-.0628 J0.0
N1075 G01 X1.024
N1080 G03 X.9613 Y2.9768 I0.0 J-.0629
N1085 G01 Y1.0232
N1090 G03 X1.0232 Y.9613 I.0629 J.0009
N1095 G01 X2.9768
N1100 G03 X3.0387 Y1.024 I-.0004 J.0624
N1105 G01 Y2.
N1110 G03 X2.6637 Y2.375 I-.375 J0.0
N1115 G01 Z2.5157
N1120 G00 Z3.1394
N1125 X1.7237 Y2.425
N1130 Z2.5157
N1135 G01 X1.6698 Y2.3148 Z2.4829
N1140 X1.6616 Y2.1919 Z2.45
N1145 X1.6978 Y2.0741 Z2.4171
N1150 X1.7735 Y1.9768 Z2.3842
N1155 X1.8788 Y1.9128 Z2.3513
N1160 X2. Y1.8937 Z2.3184
N1165 X2.1063
N1170 Y2.1063
N1175 X1.8937
N1180 Y1.8937
N1185 X2.
N1190 Y1.5187
N1195 X2.4813
N1200 Y2.4813
N1205 X1.5187
N1210 Y1.5187
N1215 X2.
N1220 Y.9937
N1225 X2.9306
N1230 G03 X2.9888 Y1.011 I.0018 J.1002
N1235 G03 X3.0063 Y1.0694 I-.084 J.057
N1240 G01 Y2.9306
N1245 G03 X2.989 Y2.9888 I-.1003 J.0018
N1250 G03 X2.9306 Y3.0063 I-.057 J-.0841
N1255 G01 X1.0694
N1260 G03 X1.0112 Y2.989 I-.0018 J-.1003
N1265 G03 X.9937 Y2.9306 I.0841 J-.0571
N1270 G01 Y1.0694
N1275 G03 X1.011 Y1.0112 I.1002 J-.0018
N1280 G03 X1.0694 Y.9937 I.057 J.084
N1285 G01 X2.
N1290 G03 X2.375 Y1.3687 I0.0 J.375
N1295 G01 Z2.4184
N1300 G00 Z3.1394
N1305 X1.7237 Y2.4575
N1310 Z2.4184
N1315 G01 X1.6698 Y2.3473 Z2.3855
N1320 X1.6616 Y2.2243 Z2.3526
N1325 X1.6978 Y2.1065 Z2.3197
N1330 X1.7735 Y2.0093 Z2.2868
N1335 X1.8788 Y1.9453 Z2.2539
N1340 X2. Y1.9262 Z2.221
N1345 X2.0738
N1350 Y2.0738
N1355 X1.9262
N1360 Y1.9262
N1365 X2.
N1370 Y1.5512
N1375 X2.4488
N1380 Y2.4488
N1385 X1.5512
N1390 Y1.5512
N1395 X2.
N1400 Y1.0262
N1405 X2.9009
N1410 G03 X2.9564 Y1.0436 I.0023 J.0896
N1415 G03 X2.9738 Y1.1011 I-.0753 J.0542
N1420 G01 Y2.9009
N1425 G03 X2.9564 Y2.9564 I-.0896 J.0023
N1430 G03 X2.8991 Y2.9738 I-.0542 J-.0751
N1435 G01 X1.0991
N1440 G03 X1.0436 Y2.9564 I-.0023 J-.0896
N1445 G03 X1.0262 Y2.8989 I.0753 J-.0542
N1450 G01 Y1.0991
N1455 G03 X1.0436 Y1.0436 I.0896 J-.0023
N1460 G03 X1.1011 Y1.0262 I.0542 J.0753
N1465 G01 X2.
N1470 G03 X2.375 Y1.4012 I0.0 J.375
N1475 G01 Z2.321
N1480 G00 Z3.1394
N1485 X2.49 Y2.2763
N1490 Z2.321
N1495 G01 X2.3797 Y2.3302 Z2.2881
N1500 X2.2568 Y2.3384 Z2.2552
N1505 X2.139 Y2.3022 Z2.2223
N1510 X2.0417 Y2.2265 Z2.1894
N1515 X1.9778 Y2.1212 Z2.1565
N1520 X1.9586 Y2. Z2.1236
N1525 Y1.9586
N1530 X2.0414
N1535 Y2.0414
N1540 X1.9586
N1545 Y2.
N1550 X1.5836
N1555 Y1.5836
N1560 X2.4164
N1565 Y2.4164
N1570 X1.5836
N1575 Y2.
N1580 X1.0586
N1585 Y1.1206
N1590 G03 X1.1206 Y1.0586 I.062 J0.0
N1595 G01 X2.8794
N1600 G03 X2.9414 Y1.1214 I-.0004 J.0624
N1605 G01 Y2.8786
N1610 G03 X2.8786 Y2.9414 I-.0628 J0.0
N1615 G01 X1.1214
N1620 G03 X1.0586 Y2.8794 I-.0004 J-.0624
N1625 G01 Y2.
N1630 G03 X1.4336 Y1.625 I.375 J0.0
N1635 G01 Z2.2236
N1640 G00 Z3.1394
N1645 X2.2763 Y1.4776
N1650 Z2.2236
N1655 G01 X2.3302 Y1.5878 Z2.1907
N1660 X2.3384 Y1.7108 Z2.1578
N1665 X2.3022 Y1.8286 Z2.1249
N1670 X2.2265 Y1.9258 Z2.092
N1675 X2.1212 Y1.9898 Z2.0591
N1680 X2. Y2.0089 Z2.0262
N1685 X1.9911
N1690 Y1.9911
N1695 X2.0089
N1700 Y2.0089
N1705 X2.
N1710 Y2.3839
N1715 X1.6161
N1720 Y1.6161
N1725 X2.3839
N1730 Y2.3839
N1735 X2.
N1740 Y2.9089
N1745 X1.1518
N1750 G03 X1.0911 Y2.8482 I0.0 J-.0607
N1755 G01 Y1.1518
N1760 G03 X1.1518 Y1.0911 I.0607 J0.0
N1765 G01 X2.8482
N1770 G03 X2.9089 Y1.1518 I0.0 J.0607
N1775 G01 Y2.8482
N1780 G03 X2.8482 Y2.9089 I-.0607 J0.0
N1785 G01 X2.
N1790 G03 X1.625 Y2.5339 I0.0 J-.375
N1795 G01 Z2.1262
N1800 G00 Z3.1394
N1805 X2.2763 Y1.8201
N1810 Z2.1262
N1815 G01 X2.3302 Y1.9303 Z2.0934
N1820 X2.3384 Y2.0533 Z2.0605
N1825 X2.3022 Y2.1711 Z2.0276
N1830 X2.2265 Y2.2684 Z1.9947
N1835 X2.1212 Y2.3323 Z1.9618
N1840 X2. Y2.3515 Z1.9289
N1845 X1.6485
N1850 Y1.6485
N1855 X2.3515
N1860 Y2.3515
N1865 X2.
N1870 Y2.8765
N1875 X1.1849
N1880 G03 X1.1235 Y2.8151 I0.0 J-.0614
N1885 G01 Y1.1918
N1890 G03 X1.1918 Y1.1235 I.0621 J-.0061
N1895 G01 X2.8153
N1900 G03 X2.8765 Y1.1847 I0.0 J.0612
N1905 G01 Y2.8151
N1910 G03 X2.8151 Y2.8765 I-.0614 J0.0
N1915 G01 X2.
N1920 G03 X1.625 Y2.5015 I0.0 J-.375
N1925 G01 Z2.0289
N1930 G00 Z3.1394
N1935 X2.2763 Y1.7877
N1940 Z2.0289
N1945 G01 X2.3302 Y1.8979 Z1.996
N1950 X2.3384 Y2.0208 Z1.9631
N1955 X2.3022 Y2.1387 Z1.9302
N1960 X2.2265 Y2.2359 Z1.8973
N1965 X2.1212 Y2.2999 Z1.8644
N1970 X2. Y2.319 Z1.8315
N1975 X1.681
N1980 Y1.681
N1985 X2.319
N1990 Y2.319
N1995 X2.
N2000 Y2.844
N2005 X1.2188
N2010 G03 X1.156 Y2.782 I-.0023 J-.0604
N2015 G01 Y1.218
N2020 G03 X1.218 Y1.156 I.0604 J-.0015
N2025 G01 X2.782
N2030 G03 X2.844 Y1.2188 I.0015 J.0605
N2035 G01 Y2.7812
N2040 G03 X2.7812 Y2.844 I-.0605 J.0023
N2045 G01 X2.
N2050 G03 X1.625 Y2.469 I0.0 J-.375
N2055 G01 Z1.9315
N2060 G00 Z3.1394
N2065 X2.2763 Y1.7552
N2070 Z1.9315
N2075 G01 X2.3302 Y1.8654 Z1.8986
N2080 X2.3384 Y1.9884 Z1.8657
N2085 X2.3022 Y2.1062 Z1.8328
N2090 X2.2265 Y2.2034 Z1.7999
N2095 X2.1212 Y2.2674 Z1.767
N2100 X2. Y2.2865 Z1.7341
N2105 X1.7135
N2110 Y1.7135
N2115 X2.2865
N2120 Y2.2865
N2125 X2.
N2130 Y2.8115
N2135 X1.2636
N2140 G03 X1.205 Y2.795 I-.0059 J-.0916
N2145 G03 X1.1885 Y2.7364 I.0752 J-.0528
N2150 G01 Y1.2636
N2155 G03 X1.205 Y1.205 I.0916 J-.0059
N2160 G03 X1.2637 Y1.1885 I.0528 J.0752
N2165 G01 X2.7364
N2170 G03 X2.795 Y1.205 I.0059 J.0916
N2175 G03 X2.8115 Y1.2637 I-.0752 J.0528
N2180 G01 Y2.7364
N2185 G03 X2.795 Y2.795 I-.0916 J.0059
N2190 G03 X2.7364 Y2.8115 I-.0528 J-.0752
N2195 G01 X2.
N2200 G03 X1.625 Y2.4365 I0.0 J-.375
N2205 G01 Z1.8341
N2210 G00 Z3.1394
N2215 X2.2763 Y1.7228
N2220 Z1.8341
N2225 G01 X2.3302 Y1.833 Z1.8012
N2230 X2.3384 Y1.9559 Z1.7683
N2235 X2.3022 Y2.0737 Z1.7354
N2240 X2.2265 Y2.171 Z1.7025
N2245 X2.1212 Y2.2349 Z1.6696
N2250 X2. Y2.2541 Z1.6367
N2255 X1.7459
N2260 Y1.7459
N2265 X2.2541
N2270 Y2.2541
N2275 X2.
N2280 Y2.7791
N2285 X1.2772
N2290 G03 X1.2209 Y2.7228 I0.0 J-.0562
N2295 G01 Y1.2778
N2300 G03 X1.2778 Y1.2209 I.0569 J0.0
N2305 G01 X2.7221
N2310 G03 X2.7791 Y1.2779 I0.0 J.057
N2315 G01 Y2.7171
N2320 G03 X2.7171 Y2.7791 I-.0581 J.0039
N2325 G01 X2.
N2330 G03 X1.625 Y2.4041 I0.0 J-.375
N2335 G01 Z1.7367
N2340 G00 Z3.1394
N2345 X2.3566 Y2.2763
N2350 Z1.7367
N2355 G01 X2.2464 Y2.3302 Z1.7038
N2360 X2.1234 Y2.3384 Z1.671
N2365 X2.0056 Y2.3022 Z1.6381
N2370 X1.9083 Y2.2265 Z1.6052
N2375 X1.8444 Y2.1212 Z1.5723
N2380 X1.8253 Y2. Z1.5394
N2385 Y1.8253
N2390 X2.1747
N2395 Y2.1747
N2400 X1.8253
N2405 Y2.
N2410 X1.3003
N2415 Y1.3003
N2420 X2.6997
N2425 Y2.6997
N2430 X1.3003
N2435 Y2.
N2440 G03 X1.6753 Y1.625 I.375 J0.0
N2445 G01 Z1.6394
 
( OPER: FLOOR_FACING )
N2450 S1146 M03
N2455 G90 G00 X2. Y2.126
N2460 G43 H01 D01 Z2.6131
N2465 G01 Z1.5 F9.8
N2470 X1.874
N2475 Y1.874
N2480 X2.126
N2485 Y2.126
N2490 X2.
N2495 Y2.6885
N2500 X1.3115
N2505 Y1.3115
N2510 X2.6885
N2515 Y2.6885
N2520 X2.
N2525 X1.99
N2530 Z4.5
 
( OPER: CAVITY_MILL_OUTSIDE )
N2535 S1253 M03
N2540 G90 G00 X-.75 Y1.625
N2545 G43 H01 D01 Z2.9889
N2550 G01 Z2.8889 F9.8
N2555 X-.5536
N2560 G03 X-.1786 Y2. I0.0 J.375
N2565 G01 Y3.5165
N2570 G02 X.4836 Y4.1786 I.6621 J0.0
N2575 G01 X3.5165
N2580 G02 X4.1786 Y3.5165 I0.0 J-.6621
N2585 G01 Y.4836
N2590 G02 X3.5165 Y-.1786 I-.6621 J0.0
N2595 G01 X.4836
N2600 G02 X-.1786 Y.4836 I0.0 J.6621
N2605 G01 Y2.
N2610 G03 X-.5536 Y2.375 I-.375 J0.0
N2615 G01 X-.75
N2620 Z2.9889
N2625 G00 Z3.1394
N2630 Y1.625
N2635 Z2.8778
N2640 G01 Z2.7778
N2645 X-.5675
N2650 G03 X-.1925 Y2. I0.0 J.375
N2655 G01 Y3.5303
N2660 G02 X.4697 Y4.1925 I.6621 J0.0
N2665 G01 X3.5303
N2670 G02 X4.1925 Y3.5303 I0.0 J-.6621
N2675 G01 Y.4697
N2680 G02 X3.5303 Y-.1925 I-.6621 J0.0
N2685 G01 X.4697
N2690 G02 X-.1925 Y.4697 I0.0 J.6621
N2695 G01 Y2.
N2700 G03 X-.5675 Y2.375 I-.375 J0.0
N2705 G01 X-.75
N2710 Z2.8778
N2715 G00 Z3.1394
N2720 Y1.625
N2725 Z2.7667
N2730 G01 Z2.6667
N2735 X-.5813
N2740 G03 X-.2063 Y2. I0.0 J.375
N2745 G01 Y3.5442
N2750 G02 X.4558 Y4.2063 I.6621 J0.0
N2755 G01 X3.5442
N2760 G02 X4.2063 Y3.5442 I0.0 J-.6621
N2765 G01 Y.4558
N2770 G02 X3.5442 Y-.2063 I-.6621 J0.0
N2775 G01 X.4558
N2780 G02 X-.2063 Y.4558 I0.0 J.6621
N2785 G01 Y2.
N2790 G03 X-.5813 Y2.375 I-.375 J0.0
N2795 G01 X-.75
N2800 Z2.7667
N2805 G00 Z3.1394
N2810 Y1.625
N2815 Z2.6556
N2820 G01 Z2.5556
N2825 X-.5952
N2830 G03 X-.2202 Y2. I0.0 J.375
N2835 G01 Y3.5581
N2840 G02 X.4419 Y4.2202 I.6621 J0.0
N2845 G01 X1.6939
N2850 G03 X2.296 Y4.2202 I.301 J5.0565
N2855 G01 X3.5581
N2860 G02 X4.2202 Y3.5581 I0.0 J-.6621
N2865 G01 Y.4419
N2870 G02 X3.5581 Y-.2202 I-.6621 J0.0
N2875 G01 X2.296
N2880 G03 X1.6939 Y-.2202 I-.301 J-5.0639
N2885 G01 X.4419
N2890 G02 X-.2202 Y.4419 I0.0 J.6621
N2895 G01 Y2.
N2900 G03 X-.5952 Y2.375 I-.375 J0.0
N2905 G01 X-.75
N2910 Z2.6556
N2915 G00 Z3.1394
N2920 Y1.625
N2925 Z2.5444
N2930 G01 Z2.4444
N2935 X-.5983
N2940 G03 X-.2233 Y2. I0.0 J.375
N2945 G01 Y2.4979
N2950 G03 X-.2341 Y2.7924 I-4.5063 J-.0184
N2955 G01 Y3.572
N2960 G02 X.428 Y4.2341 I.6621 J0.0
N2965 G01 X1.5365
N2970 G03 X1.9551 Y4.2114 I.5101 J5.5397
N2975 G01 X1.9844 Y4.2113
N2980 G03 X2.4534 Y4.2341 I-.0238 J5.3152
N2985 G01 X3.572
N2990 G02 X4.2341 Y3.572 I0.0 J-.6621
N2995 G01 Y2.7924
N3000 G03 X4.2233 Y2.4979 I4.6048 J-.3169
N3005 G01 Y1.5074
N3010 G03 X4.2341 Y1.2043 I5.0153 J.0276
N3015 G01 Y.428
N3020 G02 X3.572 Y-.2341 I-.6621 J0.0
N3025 G01 X2.4534
N3030 G03 X1.681 Y-.2223 I-.4587 J-4.7332
N3035 G01 X1.5365 Y-.2341
N3040 X.428
N3045 G02 X-.2341 Y.428 I0.0 J.6621
N3050 G01 Y1.2042
N3055 G03 X-.2233 Y1.5028 I-5.0062 J.3311
N3060 G01 Y2.
N3065 G03 X-.5983 Y2.375 I-.375 J0.0
N3070 G01 X-.75
N3075 Z2.5444
N3080 G00 Z3.1394
N3085 Y1.625
N3090 Z2.4333
N3095 G01 Z2.3333
N3100 X-.5983
N3105 G03 X-.2233 Y2. I0.0 J.375
N3110 G01 Y2.4979
N3115 G03 X-.2271 Y2.6659 I-4.5063 J-.0184
N3120 G03 X-.2362 Y2.7921 I-2.9981 J-.1523
N3125 G01 X-.2457 Y2.8696
N3130 X-.248 Y2.9125
N3135 Y3.5859
N3140 G02 X.4141 Y4.248 I.6646 J-.0025
N3145 G01 X1.4478
N3150 X1.5396 Y4.2373
N3155 G03 X1.7299 Y4.2197 I.4586 J3.9254
N3160 G03 X1.9551 Y4.2114 I.3168 J5.5541
N3165 G01 X1.9844 Y4.2113
N3170 G03 X2.2959 Y4.2218 I-.0238 J5.3152
N3175 G03 X2.3976 Y4.2308 I-.2977 J3.9409
N3180 G01 X2.4831 Y4.2431
N3185 X2.5421 Y4.248
N3190 X3.5859
N3195 G02 X4.248 Y3.5859 I-.0025 J-.6646
N3200 G01 Y2.9125
N3205 G02 X4.2341 Y2.773 I-1.0654 J.0359
N3210 G03 X4.2264 Y2.6475 I3.4452 J-.2731
N3215 G03 X4.2233 Y2.4979 I4.6124 J-.172
N3220 G01 Y1.5074
N3225 G03 X4.227 Y1.339 I5.0153 J.0276
N3230 G03 X4.2345 Y1.227 I3.1654 J.1549
N3235 G01 X4.2461 Y1.1304
N3240 X4.248 Y1.0914
N3245 Y.4141
N3250 G02 X3.5859 Y-.248 I-.6648 J.0027
N3255 G01 X2.5421
N3260 G02 X2.3865 Y-.2297 I.0859 J1.4012
N3265 G03 X2.2493 Y-.2188 I-.3912 J-4.0373
N3270 G03 X1.7491 Y-.2183 I-.2547 J-4.7486
N3275 G03 X1.5928 Y-.2308 I.2462 J-4.0487
N3280 G02 X1.4478 Y-.248 I-.2632 J1.6004
N3285 G01 X.4141
N3290 G02 X-.248 Y.4141 I.0027 J.6648
N3295 G01 Y1.0914
N3300 X-.2461 Y1.1304
N3305 X-.2413 Y1.1701
N3310 G03 X-.2277 Y1.3235 I-2.5282 J.3025
N3315 G03 X-.2233 Y1.5028 I-5.0127 J.2119
N3320 G01 Y2.
N3325 G03 X-.5983 Y2.375 I-.375 J0.0
N3330 G01 X-.75
N3335 Z2.4333
N3340 G00 Z3.1394
N3345 Y1.625
N3350 Z2.3222
N3355 G01 Z2.2222
N3360 X-.5983
N3365 G03 X-.2233 Y2. I0.0 J.375
N3370 G01 Y2.4979
N3375 G03 X-.2271 Y2.6659 I-4.5063 J-.0184
N3380 G03 X-.2319 Y2.7414 I-2.9981 J-.1523
N3385 G03 X-.2525 Y2.9017 I-2.1197 J-.1912
N3390 G02 X-.2619 Y2.9892 I.733 J.1228
N3395 G01 Y3.5998
N3400 G02 X.4002 Y4.2619 I.6649 J-.0028
N3405 G01 X1.3764
N3410 G02 X1.4488 Y4.2569 I.0146 J-.3164
N3415 G01 X1.5367 Y4.239
N3420 G03 X1.7363 Y4.2193 I.4583 J3.6316
N3425 G03 X1.9551 Y4.2114 I.3103 J5.5545
N3430 G01 X1.9844 Y4.2113
N3435 G03 X2.2515 Y4.2192 I-.0238 J5.3152
N3440 G03 X2.4526 Y4.2389 I-.2566 J3.6514
N3445 G01 X2.5409 Y4.2569
N3450 G02 X2.6194 Y4.2619 I.0646 J-.3926
N3455 G01 X3.5998
N3460 G02 X4.2619 Y3.5998 I-.0028 J-.6649
N3465 G01 Y2.9892
N3470 G02 X4.252 Y2.8997 I-.8702 J.0509
N3475 G03 X4.2431 Y2.84 I2.1689 J-.3541
N3480 G01 X4.2373 Y2.7936
N3485 G03 X4.2306 Y2.7251 I2.1836 J-.248
N3490 G03 X4.2264 Y2.6475 I3.4487 J-.2252
N3495 G03 X4.2233 Y2.4979 I4.6124 J-.172
N3500 G01 Y1.5074
N3505 G03 X4.2274 Y1.3312 I5.0153 J.0298
N3510 G03 X4.2362 Y1.2132 I2.9274 J.1572
N3515 G01 X4.2376 Y1.2009
N3520 G02 X4.2619 Y1.0245 I-2.5446 J-.4398
N3525 G01 Y.4002
N3530 G02 X3.5998 Y-.2619 I-.6651 J.003
N3535 G01 X2.6194
N3540 G02 X2.5294 Y-.2545 I-.0142 J.38
N3545 G01 X2.4616 Y-.2407
N3550 X2.4149 Y-.2344
N3555 G03 X2.2289 Y-.2177 I-.4199 J-3.6423
N3560 G03 X1.7631 Y-.2176 I-.2343 J-4.7496
N3565 G03 X1.5633 Y-.2357 I.2318 J-3.6591
N3570 G03 X1.5174 Y-.2441 I.0444 J-.3724
N3575 G02 X1.3903 Y-.2619 I-.1474 J.5916
N3580 G01 X.4002
N3585 G02 X-.2619 Y.4002 I.003 J.6651
N3590 G01 Y1.0245
N3595 G02 X-.2436 Y1.1672 I4.3675 J-.487
N3600 G03 X-.2305 Y1.2805 I-1.9491 J.2822
N3605 G03 X-.2277 Y1.3235 I-2.539 J.1921
N3610 G03 X-.2233 Y1.5028 I-5.0127 J.2119
N3615 G01 Y2.
N3620 G03 X-.5983 Y2.375 I-.375 J0.0
N3625 G01 X-.75
N3630 Z2.3222
N3635 G00 Z3.1394
N3640 Y1.625
N3645 Z2.2111
N3650 G01 Z2.1111
N3655 X-.5983
N3660 G03 X-.2233 Y2. I0.0 J.375
N3665 G01 Y2.4979
N3670 G03 X-.2271 Y2.6659 I-4.5063 J-.0184
N3675 G03 X-.2319 Y2.7414 I-2.9981 J-.1523
N3680 G03 X-.2332 Y2.7548 I-2.1197 J-.1912
N3685 G03 X-.2431 Y2.8323 I-1.7677 J-.187
N3690 G03 X-.2572 Y2.892 I-.3708 J-.0561
N3695 G02 X-.2758 Y3.017 I.3611 J.1177
N3700 G01 Y3.6137
N3705 G02 X.3863 Y4.2758 I.6644 J-.0023
N3710 G01 X1.3571
N3715 G02 X1.5054 Y4.251 I-.0007 J-.4601
N3720 G03 X1.5839 Y4.2334 I.121 J.3549
N3725 G03 X1.7372 Y4.2193 I.411 J3.6337
N3730 G03 X1.9551 Y4.2114 I.3094 J5.5545
N3735 G01 X1.9844 Y4.2113
N3740 G03 X2.2507 Y4.2192 I-.0238 J5.3152
N3745 G03 X2.4057 Y4.2333 I-.2557 J3.6479
N3750 G03 X2.4838 Y4.2508 I-.0424 J.3726
N3755 G02 X2.6327 Y4.2758 I.1507 J-.4426
N3760 G01 X3.6137
N3765 G02 X4.2758 Y3.6137 I-.0023 J-.6644
N3770 G01 Y3.017
N3775 G02 X4.2571 Y2.8918 I-.3794 J-.0074
N3780 G03 X4.243 Y2.8325 I.3566 J-.1159
N3785 G03 X4.2353 Y2.7751 I1.7237 J-.2617
N3790 G03 X4.2306 Y2.7251 I2.1856 J-.2295
N3795 G03 X4.2264 Y2.6475 I3.4487 J-.2252
N3800 G03 X4.2233 Y2.4979 I4.6124 J-.172
N3805 G01 Y1.5112
N3810 X4.2282 Y1.318
N3815 G03 X4.237 Y1.2065 I2.9264 J.1747
N3820 G03 X4.2385 Y1.1961 I.9456 J.1306
N3825 G01 X4.2432 Y1.1672
N3830 G03 X4.2452 Y1.1564 I.9393 J.1699
N3835 G03 X4.2563 Y1.1131 I.3682 J.0712
N3840 G02 X4.2758 Y.9869 I-.3847 J-.1239
N3845 G01 Y.3863
N3850 G02 X3.6137 Y-.2758 I-.6646 J.0025
N3855 G01 X2.6327
N3860 G02 X2.4838 Y-.2508 I.0016 J.4665
N3865 G03 X2.4056 Y-.2333 I-.1205 J-.3551
N3870 G03 X2.2284 Y-.2177 I-.4107 J-3.639
N3875 G03 X1.7637 Y-.2176 I-.2338 J-4.7496
N3880 G03 X1.584 Y-.2334 I.2313 J-3.6548
N3885 G03 X1.5054 Y-.251 I.0424 J-.3726
N3890 G02 X1.3571 Y-.2758 I-.1488 J.4346
N3895 G01 X.3863
N3900 G02 X-.2758 Y.3863 I.0025 J.6646
N3905 G01 Y.9869
N3910 G02 X-.2575 Y1.1103 I.4065 J.0027
N3915 G03 X-.2458 Y1.1594 I-.3582 J.1109
N3920 G01 X-.2395 Y1.1975
N3925 G03 X-.2305 Y1.2812 I-1.9533 J.2518
N3930 G03 X-.2265 Y1.3541 I-3.2598 J.2169
N3935 G03 X-.2233 Y1.5048 I-5.0139 J.1808
N3940 G01 Y2.
N3945 G03 X-.5983 Y2.375 I-.375 J0.0
N3950 G01 X-.75
N3955 Z2.2111
N3960 G00 Z3.1394
N3965 Y1.625
N3970 Z2.1
N3975 G01 Z2.
N3980 X-.5983
N3985 G03 X-.2233 Y2. I0.0 J.375
N3990 G01 Y2.4979
N3995 G03 X-.2269 Y2.6597 I-4.5063 J-.0184
N4000 G03 X-.2337 Y2.7604 I-3.0219 J-.1563
N4005 G03 X-.2487 Y2.8316 I-.3728 J-.0409
N4010 G01 X-.2706 Y2.9014
N4015 G02 X-.2897 Y3.0262 I.3129 J.1117
N4020 G01 Y3.6276
N4025 G02 X.3724 Y4.2897 I.6658 J-.0037
N4030 G01 X1.3453
N4035 G02 X1.5089 Y4.2576 I.0062 J-.4016
N4040 G03 X1.6162 Y4.2299 I.1465 J.3452
N4045 G03 X1.7372 Y4.2193 I.3787 J3.6372
N4050 G03 X1.9551 Y4.2114 I.3094 J5.5545
N4055 G01 X1.9844 Y4.2113
N4060 G03 X2.2319 Y4.2182 I-.0238 J5.3152
N4065 G03 X2.3194 Y4.2246 I-.243 J3.8865
N4070 G03 X2.3709 Y4.2296 I-.3245 J3.6424
N4075 G03 X2.4733 Y4.2552 I-.0389 J.373
N4080 G02 X2.6445 Y4.2897 I.1759 J-.4309
N4085 G01 X3.6276
N4090 G02 X4.2897 Y3.6276 I-.0037 J-.6658
N4095 G01 Y3.0262
N4100 G02 X4.2706 Y2.9014 I-.3262 J-.014
N4105 G01 X4.2488 Y2.8319
N4110 G03 X4.2334 Y2.7561 I.3579 J-.112
N4115 G03 X4.2319 Y2.7402 I2.1875 J-.2105
N4120 G03 X4.2279 Y2.678 I3.0777 J-.2312
N4125 G03 X4.2264 Y2.6475 I3.4515 J-.1781
N4130 G03 X4.2233 Y2.4929 I4.6125 J-.1713
N4135 G01 Y1.5112
N4140 X4.2281 Y1.3193
N4145 G03 X4.2326 Y1.2546 I2.9432 J.1705
N4150 G03 X4.2509 Y1.1654 I.3738 J.0303
N4155 G02 X4.2884 Y1.0338 I-1.3586 J-.4584
N4160 G01 X4.2897 Y.9776
N4165 Y.3724
N4170 G02 X3.6276 Y-.2897 I-.6658 J.0037
N4175 G01 X2.6445
N4180 G02 X2.4733 Y-.2552 I.0044 J.4643
N4185 G03 X2.3708 Y-.2296 I-.1413 J-.3473
N4190 G03 X2.3152 Y-.2243 I-.3759 J-3.6428
N4195 G03 X2.206 Y-.2166 I-.3257 J-3.8764
N4200 G03 X1.7637 Y-.2176 I-.2114 J-4.7507
N4205 G03 X1.6162 Y-.2299 I.2313 J-3.6548
N4210 G03 X1.5089 Y-.2576 I.0391 J-.373
N4215 G02 X1.3453 Y-.2897 I-.1575 J.37
N4220 G01 X.3724
N4225 G02 X-.2897 Y.3724 I.0037 J.6658
N4230 G01 Y.9776
N4235 X-.2884 Y1.0338
N4240 G02 X-.2514 Y1.1641 I1.4044 J-.329
N4245 G03 X-.2341 Y1.2436 I-.3556 J.119
N4250 G03 X-.2315 Y1.2695 I-1.9587 J.2058
N4255 G03 X-.2275 Y1.3325 I-2.9574 J.2213
N4260 G03 X-.2265 Y1.3541 I-3.2628 J.1657
N4265 G03 X-.2233 Y1.5048 I-5.0139 J.1808
N4270 G01 Y2.
N4275 G03 X-.5983 Y2.375 I-.375 J0.0
N4280 G01 X-.75
N4285 Z2.1
N4290 G00 Z3.1394
N4295 Y1.625
N4300 Z1.9889
N4305 G01 Z1.8889
N4310 X-.5983
N4315 G03 X-.2233 Y2. I0.0 J.375
N4320 G01 Y2.4979
N4325 G03 X-.2266 Y2.6543 I-4.5063 J-.0184
N4330 G03 X-.2277 Y2.6759 I-3.2908 J-.1492
N4335 G03 X-.2289 Y2.6967 I-3.0215 J-.1643
N4340 G03 X-.2658 Y2.837 I-.3743 J-.0233
N4345 G02 X-.3036 Y3.0092 I.3375 J.1643
N4350 G01 Y3.6415
N4355 G02 X.3586 Y4.3036 I.6654 J-.0033
N4360 G01 X1.3236
N4365 G02 X1.5413 Y4.26 I.0241 J-.4457
N4370 G03 X1.6698 Y4.2247 I.1622 J.3381
N4375 G03 X1.7372 Y4.2193 I.3252 J3.6423
N4380 G03 X1.9551 Y4.2114 I.3094 J5.5545
N4385 G01 X1.9844 Y4.2113
N4390 G03 X2.2319 Y4.2182 I-.0238 J5.3152
N4395 G03 X2.3172 Y4.2244 I-.243 J3.8865
N4400 G03 X2.4493 Y4.2609 I-.032 J.3736
N4405 G02 X2.6351 Y4.3036 I.1846 J-.3778
N4410 G01 X3.6415
N4415 G02 X4.3036 Y3.6415 I-.0033 J-.6654
N4420 G01 Y3.0092
N4425 G02 X4.2658 Y2.8371 I-.3753 J-.0078
N4430 G03 X4.2289 Y2.6952 I.3375 J-.1636
N4435 G03 X4.2259 Y2.6335 I3.4917 J-.198
N4440 G03 X4.2233 Y2.4929 I4.613 J-.1572
N4445 G01 Y1.5112
N4450 X4.228 Y1.3254
N4455 G03 X4.2636 Y1.1755 I.3749 J.0099
N4460 G02 X4.3036 Y.9947 I-.3761 J-.1779
N4465 G01 Y.3586
N4470 G02 X3.6415 Y-.3036 I-.6659 J.0038
N4475 G01 X2.6351
N4480 G02 X2.4493 Y-.2609 I-.0012 J.4205
N4485 G03 X2.3152 Y-.2243 I-.1641 J-.3372
N4490 G03 X2.206 Y-.2166 I-.3257 J-3.8764
N4495 G03 X1.7637 Y-.2176 I-.2114 J-4.7507
N4500 G03 X1.6702 Y-.2247 I.2313 J-3.6548
N4505 G03 X1.5414 Y-.2602 I.0336 J-.3735
N4510 G02 X1.3547 Y-.3036 I-.1899 J.3937
N4515 G01 X.3586
N4520 G02 X-.3036 Y.3586 I.0038 J.6659
N4525 G01 Y.9947
N4530 G02 X-.2637 Y1.1754 I.4161 J.0029
N4535 G03 X-.2282 Y1.3202 I-.3393 J.1599
N4540 G03 X-.2263 Y1.3581 I-3.2723 J.1788
N4545 G03 X-.2233 Y1.5048 I-5.014 J.1768
N4550 G01 Y2.
N4555 G03 X-.5983 Y2.375 I-.375 J0.0
N4560 G01 X-.75
N4565 Z1.9889
N4570 G00 Z3.1394
N4575 Y1.625
N4580 Z1.8778
N4585 G01 Z1.7778
N4590 X-.5983
N4595 G03 X-.2233 Y2. I0.0 J.375
N4600 G01 Y2.4904
N4605 X-.2263 Y2.6084
N4610 G03 X-.2706 Y2.7753 I-.3749 J-.0101
N4615 G02 X-.3175 Y2.9681 I.3487 J.1868
N4620 G01 Y3.6553
N4625 G02 X.3447 Y4.3175 I.6641 J-.002
N4630 G01 X1.3831
N4635 G02 X1.5916 Y4.2635 I-.0031 J-.442
N4640 G03 X1.7502 Y4.2186 I.179 J.3295
N4645 G03 X1.9551 Y4.2114 I.2964 J5.5552
N4650 G01 X1.9844 Y4.2113
N4655 G03 X2.2319 Y4.2182 I-.0238 J5.3152
N4660 G03 X2.2436 Y4.2189 I-.243 J3.8865
N4665 G03 X2.3972 Y4.2633 I-.025 J.3742
N4670 G02 X2.6068 Y4.3175 I.2129 J-.3915
N4675 G01 X3.6553
N4680 G02 X4.3175 Y3.6553 I-.002 J-.6641
N4685 G01 Y2.9681
N4690 G02 X4.2705 Y2.775 I-.3957 J-.0059
N4695 G03 X4.2263 Y2.6084 I.3307 J-.1768
N4700 G01 X4.2233 Y2.4904
N4705 Y1.5151
N4710 X4.2262 Y1.398
N4715 G03 X4.2622 Y1.2474 I.3749 J.0098
N4720 G02 X4.3074 Y1.1304 I-.7577 J-.3601
N4725 G01 X4.3174 Y1.0403
N4730 X4.3175 Y.3447
N4735 G02 X3.6553 Y-.3175 I-.6642 J.0021
N4740 G01 X2.6068
N4745 G02 X2.4831 Y-.3005 I.0034 J.4827
N4750 G02 X2.4002 Y-.263 I.2246 J.6077
N4755 G03 X2.2481 Y-.2192 I-.1775 J-.3303
N4760 G03 X2.206 Y-.2166 I-.2587 J-3.8815
N4765 G03 X1.7637 Y-.2176 I-.2114 J-4.7507
N4770 G03 X1.7448 Y-.2188 I.2313 J-3.6548
N4775 G03 X1.5917 Y-.2634 I.026 J-.3741
N4780 G02 X1.3831 Y-.3175 I-.2118 J.388
N4785 G01 X.3447
N4790 G02 X-.3175 Y.3447 I.0021 J.6642
N4795 G01 Y1.0358
N4800 G02 X-.2673 Y1.2356 I.4013 J.0054
N4805 G03 X-.2261 Y1.3962 I-.3337 J.171
N4810 G01 X-.2233 Y1.5048
N4815 Y2.
N4820 G03 X-.5983 Y2.375 I-.375 J0.0
N4825 G01 X-.75
N4830 Z1.8778
N4835 G00 Z3.1394
N4840 Y1.625
N4845 Z1.7667
N4850 G01 Z1.6667
N4855 X-.5983
N4860 G03 X-.2233 Y2. I0.0 J.375
N4865 G01 X-.2234 Y2.4966
N4870 G03 X-.2665 Y2.6611 I-.3749 J-.0102
N4875 G02 X-.3189 Y2.787 I.6604 J.3489
N4880 G02 X-.3313 Y2.9003 I.6259 J.126
N4885 G01 Y3.6692
N4890 G02 X.3308 Y4.3313 I.6621 J0.0
N4895 G01 X1.4343
N4900 G02 X1.6571 Y4.2673 I-.0092 J-.4519
N4905 G03 X1.8343 Y4.2147 I.192 J.3221
N4910 G03 X1.9551 Y4.2114 I.2123 J5.5591
N4915 G01 X1.9844 Y4.2113
N4920 G03 X2.154 Y4.2148 I-.0238 J5.3152
N4925 G03 X2.3341 Y4.2687 I-.0141 J.3747
N4930 G02 X2.5556 Y4.3313 I.2236 J-.3677
N4935 G01 X3.6692
N4940 G02 X4.3313 Y3.6692 I0.0 J-.6621
N4945 G01 Y2.9001
N4950 G02 X4.3189 Y2.787 I-.6391 J.013
N4955 G02 X4.2665 Y2.661 I-.7033 J.2183
N4960 G03 X4.2233 Y2.4891 I.3318 J-.1749
N4965 G01 X4.2235 Y1.508
N4970 G03 X4.2663 Y1.3435 I.3749 J.0099
N4975 G02 X4.3189 Y1.2164 I-.6557 J-.3457
N4980 G02 X4.3313 Y1.1012 I-.6018 J-.1232
N4985 G01 Y.3308
N4990 G02 X3.6692 Y-.3313 I-.6621 J0.0
N4995 G01 X2.5556
N5000 G02 X2.334 Y-.2687 I.0019 J.4298
N5005 G03 X2.1525 Y-.2146 I-.1944 J-.3207
N5010 G03 X1.8363 Y-.2146 I-.1579 J-4.7528
N5015 G03 X1.6572 Y-.2673 I.013 J-.3748
N5020 G02 X1.4343 Y-.3313 I-.2322 J.3878
N5025 G01 X.3308
N5030 G02 X-.3313 Y.3308 I0.0 J.6621
N5035 G01 Y1.1014
N5040 G02 X-.3189 Y1.2164 I.6148 J-.0083
N5045 G02 X-.2662 Y1.3437 I.7122 J-.2202
N5050 G03 X-.2233 Y1.5174 I-.332 J.1743
N5055 G01 Y2.
N5060 G03 X-.5983 Y2.375 I-.375 J0.0
N5065 G01 X-.75
N5070 Z1.7667
N5075 G00 Z3.1394
N5080 Y1.625
N5085 Z1.6556
N5090 G01 Z1.5556
N5095 X-.5983
N5100 G03 X-.2233 Y2. I0.0 J.375
N5105 G01 Y2.265
N5110 G03 X-.2633 Y2.433 I-.375 J-.0005
N5115 G02 X-.3452 Y2.7483 I.6863 J.3467
N5120 G01 Y3.6831
N5125 G02 X.3169 Y4.3452 I.6621 J0.0
N5130 G01 X1.5153
N5135 G02 X1.761 Y4.2708 I-.0073 J-.4668
N5140 G03 X1.9612 Y4.2114 I.2026 J.3156
N5145 G01 X1.9844 Y4.2113
N5150 G03 X2.0317 Y4.2117 I-.0238 J5.3152
N5155 G03 X2.2295 Y4.2715 I-.0055 J.375
N5160 G02 X2.4745 Y4.3452 I.2495 J-.3854
N5165 G01 X3.6831
N5170 G02 X4.3452 Y3.6831 I0.0 J-.6621
N5175 G01 Y2.7483
N5180 G02 X4.2631 Y2.4329 I-.7728 J.0327
N5185 G03 X4.2233 Y2.2652 I.3352 J-.1682
N5190 G01 Y1.7395
N5195 G03 X4.2607 Y1.5768 I.375 J.0005
N5200 G02 X4.3452 Y1.2555 I-.7721 J-.3749
N5205 G01 Y.3169
N5210 G02 X3.6831 Y-.3452 I-.6621 J0.0
N5215 G01 X2.4745
N5220 G02 X2.2298 Y-.2717 I.0045 J.4591
N5225 G03 X2.0301 Y-.2121 I-.203 J-.3153
N5230 G03 X1.9593 Y-.2121 I-.0355 J-4.7553
N5235 G03 X1.7604 Y-.2712 I.0033 J-.375
N5240 G02 X1.5153 Y-.3452 I-.2524 J.3927
N5245 G01 X.3169
N5250 G02 X-.3452 Y.3169 I0.0 J.6621
N5255 G01 Y1.2555
N5260 G02 X-.2626 Y1.5713 I.7889 J-.0376
N5265 G03 X-.2233 Y1.738 I-.3356 J.1672
N5270 G01 Y2.
N5275 G03 X-.5983 Y2.375 I-.375 J0.0
N5280 G01 X-.75
N5285 Z1.6556
N5290 G00 Z3.1394
N5295 Y1.625
N5300 Z1.5444
N5305 G01 Z1.4444
N5310 X-.7341
N5315 G03 X-.3591 Y2. I0.0 J.375
N5320 G01 Y3.697
N5325 G02 X.303 Y4.3591 I.6621 J0.0
N5330 G01 X1.6465
N5335 G02 X1.8546 Y4.3153 I-.017 J-.5964
N5340 G03 X2.1352 Y4.3149 I.1408 J.3476
N5345 G02 X2.3434 Y4.3591 I.2297 J-.5688
N5350 G01 X3.697
N5355 G02 X4.3591 Y3.697 I0.0 J-.6621
N5360 G01 Y.303
N5365 G02 X3.697 Y-.3591 I-.6621 J0.0
N5370 G01 X2.3434
N5375 G02 X2.1357 Y-.3151 I.0194 J.6033
N5380 G03 X1.8551 Y-.315 I-.1404 J-.3477
N5385 G02 X1.6465 Y-.3591 I-.2279 J.5623
N5390 G01 X.303
N5395 G02 X-.3591 Y.303 I0.0 J.6621
N5400 G01 Y2.
N5405 G03 X-.7341 Y2.375 I-.375 J0.0
N5410 G01 X-.75
N5415 Z1.5444
N5420 G00 Z3.1394
N5425 Y1.625
N5430 Z1.4333
N5435 G01 Z1.3333
N5440 X-.748
N5445 G03 X-.373 Y2. I0.0 J.375
N5450 G01 Y3.7109
N5455 G02 X.2891 Y4.373 I.6621 J0.0
N5460 G01 X3.7109
N5465 G02 X4.373 Y3.7109 I0.0 J-.6621
N5470 G01 Y.2891
N5475 G02 X3.7109 Y-.373 I-.6621 J0.0
N5480 G01 X.2891
N5485 G02 X-.373 Y.2891 I0.0 J.6621
N5490 G01 Y2.
N5495 G03 X-.75 Y2.375 I-.375 J0.0
N5500 G01 Z1.4333
N5505 G00 Z3.1394
N5510 X3.4833 Y4.7562
N5515 Z1.3222
N5520 G01 Z1.2222
N5525 G03 X3.8072 Y4.375 I.3749 J-.0097
N5530 G02 X4.375 Y3.8072 I-.0904 J-.6582
N5535 G03 X4.7562 Y3.4833 I.3715 J.051
N5540 G01 Z1.3222
N5545 G00 Z3.1394
N5550 Y.5167
N5555 Z1.3222
N5560 G01 Z1.2222
N5565 G03 X4.375 Y.1928 I-.0097 J-.3749
N5570 G02 X3.8072 Y-.375 I-.6582 J.0904
N5575 G03 X3.4833 Y-.7562 I.051 J-.3715
N5580 G01 Z1.3222
N5585 G00 Z3.1394
N5590 X.5167
N5595 Z1.3222
N5600 G01 Z1.2222
N5605 G03 X.1928 Y-.375 I-.3749 J.0097
N5610 G02 X-.375 Y.1928 I.0904 J.6582
N5615 G03 X-.7562 Y.5167 I-.3715 J-.051
N5620 G01 Z1.3222
N5625 G00 Z3.1394
N5630 Y3.4833
N5635 Z1.3222
N5640 G01 Z1.2222
N5645 G03 X-.375 Y3.8072 I.0097 J.3749
N5650 G02 X.1928 Y4.375 I.6582 J-.0904
N5655 G03 X.5167 Y4.7562 I-.051 J.3715
N5660 G01 Z1.3222
N5665 G00 Z3.1394
N5670 X-.7562 Y3.4833
N5675 Z1.2111
N5680 G01 Z1.1111
N5685 G03 X-.375 Y3.8072 I.0097 J.3749
N5690 G02 X.1928 Y4.375 I.6582 J-.0904
N5695 G03 X.5167 Y4.7562 I-.051 J.3715
N5700 G01 Z1.2111
N5705 G00 Z3.1394
N5710 X3.4833
N5715 Z1.2111
N5720 G01 Z1.1111
N5725 G03 X3.8072 Y4.375 I.3749 J-.0097
N5730 G02 X4.375 Y3.8072 I-.0904 J-.6582
N5735 G03 X4.7562 Y3.4833 I.3715 J.051
N5740 G01 Z1.2111
N5745 G00 Z3.1394
N5750 Y.5167
N5755 Z1.2111
N5760 G01 Z1.1111
N5765 G03 X4.375 Y.1928 I-.0097 J-.3749
N5770 G02 X3.8072 Y-.375 I-.6582 J.0904
N5775 G03 X3.4833 Y-.7562 I.051 J-.3715
N5780 G01 Z1.2111
N5785 G00 Z3.1394
N5790 X.5167
N5795 Z1.2111
N5800 G01 Z1.1111
N5805 G03 X.1928 Y-.375 I-.3749 J.0097
N5810 G02 X-.375 Y.1928 I.0904 J.6582
N5815 G03 X-.7562 Y.5167 I-.3715 J-.051
N5820 G01 Z1.2111
N5825 G00 Z3.1394
N5830 X.5167 Y-.7562
N5835 Z1.1
N5840 G01 Z1.
N5845 G03 X.1928 Y-.375 I-.3749 J.0097
N5850 G02 X-.375 Y.1928 I.0904 J.6582
N5855 G03 X-.7562 Y.5167 I-.3715 J-.051
N5860 G01 Z1.1
N5865 G00 Z3.1394
N5870 X4.7562
N5875 Z1.1
N5880 G01 Z1.
N5885 G03 X4.375 Y.1928 I-.0097 J-.3749
N5890 G02 X3.8072 Y-.375 I-.6582 J.0904
N5895 G03 X3.4833 Y-.7562 I.051 J-.3715
N5900 G01 Z1.1
N5905 G00 Z3.1394
N5910 Y4.7562
N5915 Z1.1
N5920 G01 Z1.
N5925 G03 X3.8072 Y4.375 I.3749 J-.0097
N5930 G02 X4.375 Y3.8072 I-.0904 J-.6582
N5935 G03 X4.7562 Y3.4833 I.3715 J.051
N5940 G01 Z1.1
N5945 G00 Z3.1394
N5950 X-.7562
N5955 Z1.1
N5960 G01 Z1.
N5965 G03 X-.375 Y3.8072 I.0097 J.3749
N5970 G02 X.1928 Y4.375 I.6582 J-.0904
N5975 G03 X.5167 Y4.7562 I-.051 J.3715
N5980 G01 Z1.1
N5985 G00 Z3.1394
N5990 X-.7562 Y3.4833
N5995 Z.9889
N6000 G01 Z.8889
N6005 G03 X-.375 Y3.8072 I.0097 J.3749
N6010 G02 X.1928 Y4.375 I.6582 J-.0904
N6015 G03 X.5167 Y4.7562 I-.051 J.3715
N6020 G01 Z.9889
N6025 G00 Z3.1394
N6030 X3.4833
N6035 Z.9889
N6040 G01 Z.8889
N6045 G03 X3.8072 Y4.375 I.3749 J-.0097
N6050 G02 X4.375 Y3.8072 I-.0904 J-.6582
N6055 G03 X4.7562 Y3.4833 I.3715 J.051
N6060 G01 Z.9889
N6065 G00 Z3.1394
N6070 Y.5167
N6075 Z.9889
N6080 G01 Z.8889
N6085 G03 X4.375 Y.1928 I-.0097 J-.3749
N6090 G02 X3.8072 Y-.375 I-.6582 J.0904
N6095 G03 X3.4833 Y-.7562 I.051 J-.3715
N6100 G01 Z.9889
N6105 G00 Z3.1394
N6110 X.5167
N6115 Z.9889
N6120 G01 Z.8889
N6125 G03 X.1928 Y-.375 I-.3749 J.0097
N6130 G02 X-.375 Y.1928 I.0904 J.6582
N6135 G03 X-.7562 Y.5167 I-.3715 J-.051
N6140 G01 Z.9889
N6145 G00 Z3.1394
N6150 X.5167 Y-.7562
N6155 Z.8778
N6160 G01 Z.7778
N6165 G03 X.1928 Y-.375 I-.3749 J.0097
N6170 G02 X-.375 Y.1928 I.0904 J.6582
N6175 G03 X-.7562 Y.5167 I-.3715 J-.051
N6180 G01 Z.8778
N6185 G00 Z3.1394
N6190 X4.7562
N6195 Z.8778
N6200 G01 Z.7778
N6205 G03 X4.375 Y.1928 I-.0097 J-.3749
N6210 G02 X3.8072 Y-.375 I-.6582 J.0904
N6215 G03 X3.4833 Y-.7562 I.051 J-.3715
N6220 G01 Z.8778
N6225 G00 Z3.1394
N6230 Y4.7562
N6235 Z.8778
N6240 G01 Z.7778
N6245 G03 X3.8072 Y4.375 I.3749 J-.0097
N6250 G02 X4.375 Y3.8072 I-.0904 J-.6582
N6255 G03 X4.7562 Y3.4833 I.3715 J.051
N6260 G01 Z.8778
N6265 G00 Z3.1394
N6270 X-.7562
N6275 Z.8778
N6280 G01 Z.7778
N6285 G03 X-.375 Y3.8072 I.0097 J.3749
N6290 G02 X.1928 Y4.375 I.6582 J-.0904
N6295 G03 X.5167 Y4.7562 I-.051 J.3715
N6300 G01 Z.8778
N6305 G00 Z3.1394
N6310 X-.7562 Y3.4833
N6315 Z.7667
N6320 G01 Z.6667
N6325 G03 X-.375 Y3.8072 I.0097 J.3749
N6330 G02 X.1928 Y4.375 I.6582 J-.0904
N6335 G03 X.5167 Y4.7562 I-.051 J.3715
N6340 G01 Z.7667
N6345 G00 Z3.1394
N6350 X3.4833
N6355 Z.7667
N6360 G01 Z.6667
N6365 G03 X3.8072 Y4.375 I.3749 J-.0097
N6370 G02 X4.375 Y3.8072 I-.0904 J-.6582
N6375 G03 X4.7562 Y3.4833 I.3715 J.051
N6380 G01 Z.7667
N6385 G00 Z3.1394
N6390 Y.5167
N6395 Z.7667
N6400 G01 Z.6667
N6405 G03 X4.375 Y.1928 I-.0097 J-.3749
N6410 G02 X3.8072 Y-.375 I-.6582 J.0904
N6415 G03 X3.4833 Y-.7562 I.051 J-.3715
N6420 G01 Z.7667
N6425 G00 Z3.1394
N6430 X.5167
N6435 Z.7667
N6440 G01 Z.6667
N6445 G03 X.1928 Y-.375 I-.3749 J.0097
N6450 G02 X-.375 Y.1928 I.0904 J.6582
N6455 G03 X-.7562 Y.5167 I-.3715 J-.051
N6460 G01 Z.7667
N6465 G00 Z3.1394
N6470 X.5167 Y-.7562
N6475 Z.6556
N6480 G01 Z.5556
N6485 G03 X.1928 Y-.375 I-.3749 J.0097
N6490 G02 X-.375 Y.1928 I.0904 J.6582
N6495 G03 X-.7562 Y.5167 I-.3715 J-.051
N6500 G01 Z.6556
N6505 G00 Z3.1394
N6510 X4.7562
N6515 Z.6556
N6520 G01 Z.5556
N6525 G03 X4.375 Y.1928 I-.0097 J-.3749
N6530 G02 X3.8072 Y-.375 I-.6582 J.0904
N6535 G03 X3.4833 Y-.7562 I.051 J-.3715
N6540 G01 Z.6556
N6545 G00 Z3.1394
N6550 Y4.7562
N6555 Z.6556
N6560 G01 Z.5556
N6565 G03 X3.8072 Y4.375 I.3749 J-.0097
N6570 G02 X4.375 Y3.8072 I-.0904 J-.6582
N6575 G03 X4.7562 Y3.4833 I.3715 J.051
N6580 G01 Z.6556
N6585 G00 Z3.1394
N6590 X-.7562
N6595 Z.6556
N6600 G01 Z.5556
N6605 G03 X-.375 Y3.8072 I.0097 J.3749
N6610 G02 X.1928 Y4.375 I.6582 J-.0904
N6615 G03 X.5167 Y4.7562 I-.051 J.3715
N6620 G01 Z.6556
N6625 G00 Z3.1394
N6630 X-.7562 Y3.4833
N6635 Z.5444
N6640 G01 Z.4444
N6645 G03 X-.375 Y3.8072 I.0097 J.3749
N6650 G02 X.1928 Y4.375 I.6582 J-.0904
N6655 G03 X.5167 Y4.7562 I-.051 J.3715
N6660 G01 Z.5444
N6665 G00 Z3.1394
N6670 X3.4833
N6675 Z.5444
N6680 G01 Z.4444
N6685 G03 X3.8072 Y4.375 I.3749 J-.0097
N6690 G02 X4.375 Y3.8072 I-.0904 J-.6582
N6695 G03 X4.7562 Y3.4833 I.3715 J.051
N6700 G01 Z.5444
N6705 G00 Z3.1394
N6710 Y.5167
N6715 Z.5444
N6720 G01 Z.4444
N6725 G03 X4.375 Y.1928 I-.0097 J-.3749
N6730 G02 X3.8072 Y-.375 I-.6582 J.0904
N6735 G03 X3.4833 Y-.7562 I.051 J-.3715
N6740 G01 Z.5444
N6745 G00 Z3.1394
N6750 X.5167
N6755 Z.5444
N6760 G01 Z.4444
N6765 G03 X.1928 Y-.375 I-.3749 J.0097
N6770 G02 X-.375 Y.1928 I.0904 J.6582
N6775 G03 X-.7562 Y.5167 I-.3715 J-.051
N6780 G01 Z.5444
 
( OPER: POCKETING_SIDE_OVAL )
N6785 G255
N6790 G53 G00 Z0.0
N6795 S1146 M03
N6800 M11 ( C-AXIS UNLOCK )
N6805 M13 ( B-AXIS UNLOCK )
N6810 G00 B82.875 C-180.
N6815 G254
N6820 M10 ( C-AXIS LOCK )
N6825 M12 ( B-AXIS LOCK )
N6830 G54 G90 G00 X-1.9222 Y-2.3215
N6835 G43 H01 D01 Z.2772
N6840 G01 Y-2.5254 Z.2665 F9.8
N6845 X-1.9451 Y-2.5648 Z.2641
N6850 X-1.9846 Y-2.5876 Z.2617
N6855 X-2.0314 Y-2.5875 Z.2592
N6860 X-2.0707 Y-2.5646 Z.2569
N6865 X-2.0935 Y-2.5254 Z.2545
N6870 Y-2.4194 Z.2489
N6875 Y-2.5254 Z.2434
N6880 X-2.0707 Y-2.5646 Z.241
N6885 X-2.0314 Y-2.5875 Z.2386
N6890 X-1.9846 Y-2.5876 Z.2361
N6895 X-1.9451 Y-2.5648 Z.2338
N6900 X-1.9222 Y-2.5254 Z.2314
N6905 Y-1.4785 Z.1765
N6910 X-1.9451 Y-1.4392 Z.1741
N6915 X-1.9844 Y-1.4163 Z.1717
N6920 X-2.0313 Z.1693
N6925 X-2.0706 Y-1.4392 Z.1669
N6930 X-2.0935 Y-1.4785 Z.1645
N6935 Y-2.0019 Z.1371
N6940 Y-1.4785 Z.1097
N6945 X-2.0706 Y-1.4392 Z.1073
N6950 X-2.0313 Y-1.4163 Z.1049
N6955 X-1.9844 Z.1024
N6960 X-1.9451 Y-1.4392 Z.1
N6965 X-1.9222 Y-1.4785 Z.0977
N6970 Y-2.5254 Z.0428
N6975 X-1.9451 Y-2.5648 Z.0404
N6980 X-1.9846 Y-2.5876 Z.038
N6985 X-2.0314 Y-2.5875 Z.0356
N6990 X-2.0707 Y-2.5646 Z.0332
N6995 X-2.0935 Y-2.5254 Z.0308
N7000 Y-2.4194 Z.0252
N7005 Y-2.5254 Z.0197
N7010 X-2.0707 Y-2.5646 Z.0173
N7015 X-2.0314 Y-2.5875 Z.0149
N7020 X-1.9846 Y-2.5876 Z.0125
N7025 X-1.9451 Y-2.5648 Z.0101
N7030 X-1.9222 Y-2.5254 Z.0077
N7035 Y-1.4785 Z-.0472
N7040 X-1.9451 Y-1.4392 Z-.0496
N7045 X-1.9844 Y-1.4163 Z-.0519
N7050 X-2.0313 Z-.0544
N7055 X-2.0706 Y-1.4392 Z-.0568
N7060 X-2.0935 Y-1.4785 Z-.0592
N7065 Y-2.0019 Z-.0866
N7070 Y-2.5019
N7075 G03 X-1.9222 Y-2.5019 I.0856 J0.0
N7080 G01 Y-1.5019
N7085 G03 X-2.0935 Y-1.5019 I-.0856 J0.0
N7090 G01 Y-2.0019
N7095 Y-2.0119
N7100 G03 X-1.9997 Y-2.1057 I.0938 J0.0
N7105 G01 Z.0134
 
( OPER: POCKETING_SIDE_OVAL_FINISH )
N7110 G90 G00 X-2.0128 Y-2.4568
N7115 G43 H01 D01 Z.2772
N7120 G01 Y-2.5056 Z.2746 F9.8
N7125 X-2.0042 Y-2.5069 Z.2741
N7130 X-2.0028 Y-2.5056 Z.274
N7135 Y-2.5019 Z.2738
N7140 Y-1.4983 Z.2212
N7145 X-2.0115 Y-1.4969 Z.2208
N7150 X-2.0128 Y-1.4983 Z.2207
N7155 Y-1.5019 Z.2205
N7160 Y-2.5056 Z.1679
N7165 X-2.0042 Y-2.5069 Z.1674
N7170 X-2.0028 Y-2.5056 Z.1673
N7175 Y-2.5019 Z.1671
N7180 Y-1.4983 Z.1145
N7185 X-2.0115 Y-1.4969 Z.114
N7190 X-2.0128 Y-1.4983 Z.1139
N7195 Y-1.5019 Z.1137
N7200 Y-2.5056 Z.0611
N7205 X-2.0042 Y-2.5069 Z.0606
N7210 X-2.0028 Y-2.5056 Z.0605
N7215 Y-2.5019 Z.0604
N7220 Y-1.4983 Z.0078
N7225 X-2.0115 Y-1.4969 Z.0073
N7230 X-2.0128 Y-1.4983 Z.0072
N7235 Y-1.5019 Z.007
N7240 Y-2.5056 Z-.0456
N7245 X-2.0042 Y-2.5069 Z-.0461
N7250 X-2.0028 Y-2.5056 Z-.0462
N7255 Y-2.5019 Z-.0464
N7260 Y-1.4983 Z-.099
N7265 X-2.0115 Y-1.4969 Z-.0995
N7270 X-2.0128 Y-1.4983 Z-.0996
N7275 Y-1.5019 Z-.0998
N7280 Y-2.0019 Z-.126
N7285 Y-2.5019
N7290 G03 X-2.0028 Y-2.5019 I.005 J0.0
N7295 G01 Y-1.5019
N7300 G03 X-2.0128 Y-1.5019 I-.005 J0.0
N7305 G01 Y-2.0019
N7310 Y-2.0119
N7315 Z-.026
 
( OPER: POCKETING_CIRCLE )
N7320 G255
N7325 G53 G00 Z0.0
N7330 M11 ( C-AXIS UNLOCK )
N7335 M13 ( B-AXIS UNLOCK )
N7340 G00 B82.875 C-90.
N7345 G254
N7350 M10 ( C-AXIS LOCK )
N7355 M12 ( B-AXIS LOCK )
N7360 G54 G90 G00 X-2.1931 Y1.9949
N7365 G43 H01 D01 Z.2772
N7370 G01 Z-.0866 F9.8
N7375 G03 X-2.1931 Y1.9949 I.2106 J0.0
N7380 G03 X-2.1929 Y1.9849 I.2106 J0.0
N7385 G03 X-2.1623 Y1.92 I.0936 J.0044
N7390 G01 Z.0134
 
( OPER: POCKETING_CIRCLE_FINSIH )
N7395 G90 G00 X-2.2325 Y1.9949
N7400 G43 H01 D01 Z.2772
N7405 G01 Z-.126 F9.8
N7410 G03 X-2.2325 Y1.9949 I.25 J0.0
N7415 G03 X-2.2323 Y1.9849 I.25 J0.0
N7420 G03 X-2.2022 Y1.9198 I.0937 J.0037
N7425 G01 Z-.026
 
( OPER: POCKETING_SIDE_OPPOSITE )
N7430 G255
N7435 G53 G00 Z0.0
N7440 M11 ( C-AXIS UNLOCK )
N7445 M13 ( B-AXIS UNLOCK )
N7450 G00 B82.875 C0.0
N7455 G254
N7460 M10 ( C-AXIS LOCK )
N7465 M12 ( B-AXIS LOCK )
N7470 G54 G90 G00 X-1.4261 Y1.6824
N7475 G43 H01 D01 Z4.2463
N7480 G01 Y1.4785 Z4.2356 F9.8
N7485 X-1.4489 Y1.4392 Z4.2332
N7490 X-1.4883 Y1.4163 Z4.2308
N7495 X-1.5351 Z4.2284
N7500 X-1.5745 Y1.4392 Z4.226
N7505 X-1.5973 Y1.4785 Z4.2236
N7510 Y1.5845 Z4.218
N7515 Y1.4785 Z4.2125
N7520 X-1.5745 Y1.4392 Z4.2101
N7525 X-1.5351 Y1.4163 Z4.2077
N7530 X-1.4883 Z4.2053
N7535 X-1.4489 Y1.4392 Z4.2029
N7540 X-1.4261 Y1.4785 Z4.2005
N7545 Y2.5254 Z4.1456
N7550 X-1.4489 Y2.5646 Z4.1432
N7555 X-1.4881 Y2.5875 Z4.1409
N7560 X-1.535 Y2.5876 Z4.1384
N7565 X-1.5744 Y2.5648 Z4.136
N7570 X-1.5973 Y2.5254 Z4.1336
N7575 Y2.0019 Z4.1062
N7580 Y2.5254 Z4.0788
N7585 X-1.5744 Y2.5648 Z4.0764
N7590 X-1.535 Y2.5876 Z4.074
N7595 X-1.4881 Y2.5875 Z4.0715
N7600 X-1.4489 Y2.5646 Z4.0691
N7605 X-1.4261 Y2.5254 Z4.0668
N7610 Y1.4785 Z4.0119
N7615 X-1.4489 Y1.4392 Z4.0095
N7620 X-1.4883 Y1.4163 Z4.0071
N7625 X-1.5351 Z4.0047
N7630 X-1.5745 Y1.4392 Z4.0023
N7635 X-1.5973 Y1.4785 Z3.9999
N7640 Y1.5845 Z3.9944
N7645 Y1.4785 Z3.9888
N7650 X-1.5745 Y1.4392 Z3.9864
N7655 X-1.5351 Y1.4163 Z3.984
N7660 X-1.4883 Z3.9816
N7665 X-1.4489 Y1.4392 Z3.9792
N7670 X-1.4261 Y1.4785 Z3.9768
N7675 Y2.5254 Z3.9219
N7680 X-1.4489 Y2.5646 Z3.9196
N7685 X-1.4881 Y2.5875 Z3.9172
N7690 X-1.535 Y2.5876 Z3.9147
N7695 X-1.5744 Y2.5648 Z3.9123
N7700 X-1.5973 Y2.5254 Z3.9099
N7705 Y2.0019 Z3.8825
N7710 Y1.5019
N7715 G03 X-1.4261 Y1.5019 I.0856 J0.0
N7720 G01 Y2.5019
N7725 G03 X-1.5973 Y2.5019 I-.0856 J0.0
N7730 G01 Y2.0019
N7735 Y1.9919
N7740 G03 X-1.5036 Y1.8982 I.0937 J0.0
N7745 G01 Z3.9825
 
( OPER: POCKETING_SIDE_OPPOSITE_FINISH )
N7750 G90 G00 X-1.5167 Y1.5471
N7755 G43 H01 D01 Z4.2463
N7760 G01 Y1.4983 Z4.2437 F9.8
N7765 X-1.5081 Y1.4969 Z4.2432
N7770 X-1.5067 Y1.4983 Z4.2431
N7775 Y1.5019 Z4.243
N7780 Y2.5056 Z4.1904
N7785 X-1.5153 Y2.5069 Z4.1899
N7790 X-1.5167 Y2.5056 Z4.1898
N7795 Y2.5019 Z4.1896
N7800 Y1.4983 Z4.137
N7805 X-1.5081 Y1.4969 Z4.1365
N7810 X-1.5067 Y1.4983 Z4.1364
N7815 Y1.5019 Z4.1362
N7820 Y2.5056 Z4.0836
N7825 X-1.5153 Y2.5069 Z4.0831
N7830 X-1.5167 Y2.5056 Z4.083
N7835 Y2.5019 Z4.0828
N7840 Y1.4983 Z4.0302
N7845 X-1.5081 Y1.4969 Z4.0298
N7850 X-1.5067 Y1.4983 Z4.0297
N7855 Y1.5019 Z4.0295
N7860 Y2.5056 Z3.9769
N7865 X-1.5153 Y2.5069 Z3.9764
N7870 X-1.5167 Y2.5056 Z3.9763
N7875 Y2.5019 Z3.9761
N7880 Y1.4983 Z3.9235
N7885 X-1.5081 Y1.4969 Z3.923
N7890 X-1.5067 Y1.4983 Z3.9229
N7895 Y1.5019 Z3.9227
N7900 Y2.5056 Z3.8701
N7905 X-1.5153 Y2.5069 Z3.8696
N7910 X-1.5167 Y2.5056 Z3.8695
N7915 Y2.5019 Z3.8694
N7920 Y2.0019 Z3.8431
N7925 Y1.5019
N7930 G03 X-1.5067 Y1.5019 I.005 J0.0
N7935 G01 Y2.5019
N7940 G03 X-1.5167 Y2.5019 I-.005 J0.0
N7945 G01 Y2.0019
N7950 Y1.9919
N7955 Z3.9431
 
( OPER: POCKETING_CIRCLE_OPPOSITE )
N7960 G255
N7965 G53 G00 Z0.0
N7970 M11 ( C-AXIS UNLOCK )
N7975 M13 ( B-AXIS UNLOCK )
N7980 G00 B82.875 C90.
N7985 G254
N7990 M10 ( C-AXIS LOCK )
N7995 M12 ( B-AXIS LOCK )
N8000 G54 G90 G00 X-1.697 Y-1.9949
N8005 G43 H01 D01 Z4.2463
N8010 G01 Z3.8825 F9.8
N8015 G03 X-1.697 Y-1.9949 I.2106 J0.0
N8020 G03 X-1.6967 Y-2.0049 I.2106 J0.0
N8025 G03 X-1.6662 Y-2.0698 I.0936 J.0044
N8030 G01 Z3.9825
 
( OPER: POCKETING_CIRCLE_OPPOSITE_FINISH )
N8035 G90 G00 X-1.7363 Y-1.9949
N8040 G43 H01 D01 Z4.2463
N8045 G01 Z3.8431 F9.8
N8050 G03 X-1.7363 Y-1.9949 I.25 J0.0
N8055 G03 X-1.7361 Y-2.0049 I.25 J0.0
N8060 G03 X-1.706 Y-2.0701 I.0937 J.0037
N8065 G01 Z3.9431
N8070 G255
N8075 M09
 
( *** TOOL CHANGE: T02: MILL_MULTI_AXIS *** )
 
( OPER: CONTOUR_PROFILE_OUTSIDE )
N8080 G53 G00 Z0.0
N8085 G91 G28 X0.0 Y0.0
N8090 T2 M06
N8095 T3
N8100 M01
N8105 G53 G00 Z0.0
N8110 S1000 M03
N8115 G17 G54 G90
N8120 M11 ( C-AXIS UNLOCK )
N8125 M13 ( B-AXIS UNLOCK )
N8130 G00 B7.125 C0.0
N8135 G234 H02
N8140 G90 X-.1818 Y1.625 Z3.476
N8145 X-.4347 Z1.4531
N8150 G01 X-.4287 Y1.6354 Z1.4055 F10. M08
N8155 X-.4076 Y1.6663 Z1.373
N8160 X-.3866 Y1.7076 Z1.3542
N8165 X-.3696 Y1.7534 Z1.343
N8170 X-.3567 Y1.8012 Z1.336
N8175 X-.3475 Y1.8503 Z1.3317
N8180 X-.3414 Y1.9 Z1.3292
N8185 X-.338 Y1.9499 Z1.3279
N8190 X-.337 Y2. Z1.3275
N8195 Y2.1908 B7.168 C-6.309
N8200 Y2.3815 B7.295 C-12.47
N8205 Y2.5723 B7.503 C-18.357
N8210 Y2.763 B7.784 C-23.876
N8215 Y2.9538 B8.131 C-28.969
N8220 Y3.1445 B8.536 C-33.615
N8225 Y3.3353 B8.992 C-37.819
N8230 Y3.526 B9.49 C-41.603
N8235 Y3.7168 B10.025 C-45.
N8240 X-.3332 Y3.7811 Z1.3351
N8245 X-.3222 Y3.8446 Z1.3417
N8250 X-.3048 Y3.9068 Z1.3472
N8255 X-.281 Y3.967 Z1.3518
N8260 X-.2512 Y4.0244 Z1.3552
N8265 X-.2156 Y4.0786 Z1.3576
N8270 X-.1747 Y4.1288 Z1.3587
N8275 X-.1288 Y4.1747
N8280 X-.0786 Y4.2156 Z1.3576
N8285 X-.0244 Y4.2512 Z1.3552
N8290 X.033 Y4.281 Z1.3518
N8295 X.0932 Y4.3048 Z1.3472
N8300 X.1554 Y4.3222 Z1.3417
N8305 X.2189 Y4.3332 Z1.3351
N8310 X.2832 Y4.337 Z1.3275
N8315 X.474 B9.49 C-48.397
N8320 X.6647 B8.992 C-52.181
N8325 X.8555 B8.536 C-56.385
N8330 X1.0462 B8.131 C-61.031
N8335 X1.237 B7.784 C-66.124
N8340 X1.4277 B7.503 C-71.643
N8345 X1.6185 B7.295 C-77.53
N8350 X1.8092 B7.168 C-83.691
N8355 X2. B7.125 C-90.
N8360 X2.1908 B7.168 C-96.309
N8365 X2.3815 B7.295 C-102.47
N8370 X2.5723 B7.503 C-108.357
N8375 X2.763 B7.784 C-113.876
N8380 X2.9538 B8.131 C-118.969
N8385 X3.1445 B8.536 C-123.615
N8390 X3.3353 B8.992 C-127.819
N8395 X3.526 B9.49 C-131.603
N8400 X3.7168 B10.025 C-135.
N8405 X3.7811 Y4.3332 Z1.3351
N8410 X3.8446 Y4.3222 Z1.3417
N8415 X3.9068 Y4.3048 Z1.3472
N8420 X3.967 Y4.281 Z1.3518
N8425 X4.0244 Y4.2512 Z1.3552
N8430 X4.0786 Y4.2156 Z1.3576
N8435 X4.1288 Y4.1747 Z1.3587
N8440 X4.1747 Y4.1288
N8445 X4.2156 Y4.0786 Z1.3576
N8450 X4.2512 Y4.0244 Z1.3552
N8455 X4.281 Y3.967 Z1.3518
N8460 X4.3048 Y3.9068 Z1.3472
N8465 X4.3222 Y3.8446 Z1.3417
N8470 X4.3332 Y3.7811 Z1.3351
N8475 X4.337 Y3.7168 Z1.3275
N8480 Y3.526 B9.49 C-138.397
N8485 Y3.3353 B8.992 C-142.181
N8490 Y3.1445 B8.536 C-146.385
N8495 Y2.9538 B8.131 C-151.031
N8500 Y2.763 B7.784 C-156.124
N8505 Y2.5723 B7.503 C-161.643
N8510 Y2.3815 B7.295 C-167.53
N8515 Y2.1908 B7.168 C-173.691
N8520 Y2. B7.125 C-180.
N8525 Y1.8092 B7.168 C-186.309
N8530 Y1.6185 B7.295 C-192.47
N8535 Y1.4277 B7.503 C-198.357
N8540 Y1.237 B7.784 C-203.876
N8545 Y1.0462 B8.131 C-208.969
N8550 Y.8555 B8.536 C-213.615
N8555 Y.6647 B8.992 C-217.819
N8560 Y.474 B9.49 C-221.603
N8565 Y.2832 B10.025 C-225.
N8570 X4.3332 Y.2189 Z1.3351
N8575 X4.3222 Y.1554 Z1.3417
N8580 X4.3048 Y.0932 Z1.3472
N8585 X4.281 Y.033 Z1.3518
N8590 X4.2512 Y-.0244 Z1.3552
N8595 X4.2156 Y-.0786 Z1.3576
N8600 X4.1747 Y-.1288 Z1.3587
N8605 X4.1288 Y-.1747
N8610 X4.0786 Y-.2156 Z1.3576
N8615 X4.0244 Y-.2512 Z1.3552
N8620 X3.967 Y-.281 Z1.3518
N8625 X3.9068 Y-.3048 Z1.3472
N8630 X3.8446 Y-.3222 Z1.3417
N8635 X3.7811 Y-.3332 Z1.3351
N8640 X3.7168 Y-.337 Z1.3275
N8645 X3.526 B9.49 C-228.397
N8650 X3.3353 B8.992 C-232.181
N8655 X3.1445 B8.536 C-236.385
N8660 X2.9538 B8.131 C-241.031
N8665 X2.763 B7.784 C-246.124
N8670 X2.5723 B7.503 C-251.643
N8675 X2.3815 B7.295 C-257.53
N8680 X2.1908 B7.168 C-263.691
N8685 X2. B7.125 C-270.
N8690 X1.8092 B7.168 C-276.309
N8695 X1.6185 B7.295 C-282.47
N8700 X1.4277 B7.503 C-288.357
N8705 X1.237 B7.784 C-293.876
N8710 X1.0462 B8.131 C-298.969
N8715 X.8555 B8.536 C-303.615
N8720 X.6647 B8.992 C-307.819
N8725 X.474 B9.49 C-311.603
N8730 X.2832 B10.025 C-315.
N8735 X.2189 Y-.3332 Z1.3351
N8740 X.1554 Y-.3222 Z1.3417
N8745 X.0932 Y-.3048 Z1.3472
N8750 X.033 Y-.281 Z1.3518
N8755 X-.0244 Y-.2512 Z1.3552
N8760 X-.0786 Y-.2156 Z1.3576
N8765 X-.1288 Y-.1747 Z1.3587
N8770 X-.1747 Y-.1288
N8775 X-.2156 Y-.0786 Z1.3576
N8780 X-.2512 Y-.0244 Z1.3552
N8785 X-.281 Y.033 Z1.3518
N8790 X-.3048 Y.0932 Z1.3472
N8795 X-.3222 Y.1554 Z1.3417
N8800 X-.3332 Y.2189 Z1.3351
N8805 X-.337 Y.2832 Z1.3275
N8810 Y.474 B9.49 C-318.397
N8815 Y.6647 B8.992 C-322.181
N8820 Y.8555 B8.536 C-326.385
N8825 Y1.0462 B8.131 C-331.031
N8830 Y1.237 B7.784 C-336.124
N8835 Y1.4277 B7.503 C-341.643
N8840 Y1.6185 B7.295 C-347.53
N8845 Y1.8092 B7.168 C-353.691
N8850 Y2. B7.125 C-360.
N8855 X-.3475 Y2.1497 Z1.3317
N8860 X-.3567 Y2.1988 Z1.336
N8865 X-.3696 Y2.2466 Z1.343
N8870 X-.3866 Y2.2924 Z1.3542
N8875 X-.4076 Y2.3337 Z1.373
N8880 X-.4287 Y2.3646 Z1.4055
N8885 X-.4347 Y2.375 Z1.4531
N8890 G00 X-.1818 Z3.476
N8895 G255
 
( OPER: CONTOUR_PROFILE_INSIDE )
N8900 G53 G00 Z0.0
N8905 G00 B-18.435 C-360.
N8910 G234 H02
N8915 G54 G90 X.7052 Y2.375 Z3.476
N8920 X1.2496 Z1.8429
N8925 G01 X1.253 Y2.3646 Z1.795 F10.
N8930 X1.2387 Y2.3337 Z1.759
N8935 X1.2218 Y2.2924 Z1.7365
N8940 X1.2074 Y2.2466 Z1.7222
N8945 X1.1961 Y2.1988 Z1.7128
N8950 X1.1879 Y2.1497 Z1.7068
N8955 X1.1824 Y2.1 Z1.7031
N8960 X1.1794 Y2.0501 Z1.7012
N8965 X1.1784 Y2. Z1.7006
N8970 Y1.9121 B-18.56 C-353.094
N8975 Y1.8242 B-18.932 C-346.363
N8980 Y1.7364 B-19.536 C-339.958
N8985 Y1.6485 B-20.351 C-333.984
N8990 Y1.5606 B-21.353 C-328.498
N8995 Y1.4727 B-22.517 C-323.519
N9000 Y1.3849 B-23.82 C-319.03
N9005 Y1.297 B-25.239 C-315.
N9010 X1.1766 Y1.2696 Z1.7125
N9015 X1.1802 Y1.2442 Z1.7214
N9020 X1.1891 Y1.2217 Z1.7269
N9025 X1.2031 Y1.2031 Z1.7287
N9030 X1.2217 Y1.1891 Z1.7269
N9035 X1.2442 Y1.1802 Z1.7214
N9040 X1.2696 Y1.1766 Z1.7125
N9045 X1.297 Y1.1784 Z1.7006
N9050 X1.3409 B-24.516 C-313.04
N9055 X1.3849 B-23.82 C-310.97
N9060 X1.4727 B-22.517 C-306.481
N9065 X1.5606 B-21.353 C-301.502
N9070 X1.6485 B-20.351 C-296.016
N9075 X1.7364 B-19.536 C-290.042
N9080 X1.8242 B-18.932 C-283.637
N9085 X1.9121 B-18.56 C-276.906
N9090 X2. B-18.435 C-270.
N9095 X2.0879 B-18.56 C-263.094
N9100 X2.1758 B-18.932 C-256.363
N9105 X2.2636 B-19.536 C-249.958
N9110 X2.3515 B-20.351 C-243.984
N9115 X2.4394 B-21.353 C-238.498
N9120 X2.5273 B-22.517 C-233.519
N9125 X2.6151 B-23.82 C-229.03
N9130 X2.703 B-25.239 C-225.
N9135 X2.7169 Y1.1769 Z1.7069
N9140 X2.7304 Y1.1766 Z1.7125
N9145 X2.7558 Y1.1802 Z1.7214
N9150 X2.7783 Y1.1891 Z1.7269
N9155 X2.7969 Y1.2031 Z1.7287
N9160 X2.8109 Y1.2217 Z1.7269
N9165 X2.8198 Y1.2442 Z1.7214
N9170 X2.8234 Y1.2696 Z1.7125
N9175 X2.8216 Y1.297 Z1.7006
N9180 Y1.3409 B-24.516 C-223.04
N9185 Y1.3849 B-23.82 C-220.97
N9190 Y1.4727 B-22.517 C-216.481
N9195 Y1.5606 B-21.353 C-211.502
N9200 Y1.6485 B-20.351 C-206.016
N9205 Y1.7364 B-19.536 C-200.042
N9210 Y1.8242 B-18.932 C-193.637
N9215 Y1.9121 B-18.56 C-186.906
N9220 Y2. B-18.435 C-180.
N9225 Y2.0879 B-18.56 C-173.094
N9230 Y2.1758 B-18.932 C-166.363
N9235 Y2.2636 B-19.536 C-159.958
N9240 Y2.3515 B-20.351 C-153.984
N9245 Y2.4394 B-21.353 C-148.498
N9250 Y2.5273 B-22.517 C-143.519
N9255 Y2.6151 B-23.82 C-139.03
N9260 Y2.703 B-25.239 C-135.
N9265 X2.8231 Y2.7169 Z1.7069
N9270 X2.8234 Y2.7304 Z1.7125
N9275 X2.8198 Y2.7558 Z1.7214
N9280 X2.8109 Y2.7783 Z1.7269
N9285 X2.7969 Y2.7969 Z1.7287
N9290 X2.7783 Y2.8109 Z1.7269
N9295 X2.7558 Y2.8198 Z1.7214
N9300 X2.7304 Y2.8234 Z1.7125
N9305 X2.703 Y2.8216 Z1.7006
N9310 X2.6591 B-24.516 C-133.04
N9315 X2.6151 B-23.82 C-130.97
N9320 X2.5273 B-22.517 C-126.481
N9325 X2.4394 B-21.353 C-121.502
N9330 X2.3515 B-20.351 C-116.016
N9335 X2.2636 B-19.536 C-110.042
N9340 X2.1758 B-18.932 C-103.637
N9345 X2.0879 B-18.56 C-96.906
N9350 X2. B-18.435 C-90.
N9355 X1.9121 B-18.56 C-83.094
N9360 X1.8242 B-18.932 C-76.363
N9365 X1.7364 B-19.536 C-69.958
N9370 X1.6485 B-20.351 C-63.984
N9375 X1.5606 B-21.353 C-58.498
N9380 X1.4727 B-22.517 C-53.519
N9385 X1.3849 B-23.82 C-49.03
N9390 X1.297 B-25.239 C-45.
N9395 X1.2831 Y2.8231 Z1.7069
N9400 X1.2696 Y2.8234 Z1.7125
N9405 X1.2442 Y2.8198 Z1.7214
N9410 X1.2217 Y2.8109 Z1.7269
N9415 X1.2031 Y2.7969 Z1.7287
N9420 X1.1891 Y2.7783 Z1.7269
N9425 X1.1802 Y2.7558 Z1.7214
N9430 X1.1766 Y2.7304 Z1.7125
N9435 X1.1784 Y2.703 Z1.7006
N9440 Y2.6591 B-24.516 C-43.04
N9445 Y2.6151 B-23.82 C-40.97
N9450 Y2.5273 B-22.517 C-36.481
N9455 Y2.4394 B-21.353 C-31.502
N9460 Y2.3515 B-20.351 C-26.016
N9465 Y2.2636 B-19.536 C-20.042
N9470 Y2.1758 B-18.932 C-13.637
N9475 Y2.0879 B-18.56 C-6.906
N9480 Y2. B-18.435 C0.0
N9485 X1.1879 Y1.8503 Z1.7068
N9490 X1.1961 Y1.8012 Z1.7128
N9495 X1.2074 Y1.7534 Z1.7222
N9500 X1.2218 Y1.7076 Z1.7365
N9505 X1.2387 Y1.6663 Z1.759
N9510 X1.253 Y1.6354 Z1.795
N9515 X1.2496 Y1.625 Z1.8429
N9520 G00 X.7052 Z3.476
N9525 X0.0 Y2. Z7.
N9530 G255
N9535 M09
 
( *** TOOL CHANGE: T03: BALL_MILL *** )
 
( OPER: VARIABLE_AXIS_GUIDING_CURVES_INSIDE_CHAMFER )
N9540 G53 G00 Z0.0
N9545 G91 G28 Y0.0
N9550 T3 M06
N9555 T1
N9560 M01
N9565 G53 G00 Z0.0
N9570 S1000 M03
N9575 G17 G54 G90
N9580 G00 B35.22 C-.548
N9585 G234 H03
N9590 G90 X0.0 Y2. Z7.
N9595 X.5305 Y2.1173 Z3.2189
N9600 X.416 Y2.1184 Z3.0567
N9605 G01 X.3792 Y2.1187 Z3.0046 F10. M08
N9610 X.3708 Y2.1156 Z2.9927
N9615 X.365 Y2.1047 Z2.9845
N9620 X.3621 Y2.0906 Z2.9804
N9625 X.3606 Y2.0758 Z2.9783
N9630 X.3597 Y2.0609 Z2.977
N9635 X.3589 Y2.0309 Z2.9759
N9640 X.3588 Y2.0008 Z2.9757
N9645 Y1.9333 B35.227 C-.373
N9650 Y1.8657 B35.234 C-.198
N9655 X.3587 Y1.7981 B35.241 C-.024
N9660 Y1.7306 B35.249 C.151
N9665 Y1.663 B35.257 C.326
N9670 Y1.5954 B35.265 C.501
N9675 Y1.5279 B35.273 C.675
N9680 Y1.4603 B35.282 C.85
N9685 Y1.3927 B35.291 C1.024
N9690 Y1.3252 Z2.9758 B35.3 C1.199
N9695 Y1.2576 B35.309 C1.373
N9700 Y1.1901 B35.319 C1.547
N9705 Y1.1225 B35.329 C1.722
N9710 Y1.0549 B35.339 C1.896
N9715 X.3586 Y.9874 B35.349 C2.07
N9720 Y.9198 B35.36 C2.243
N9725 X.3593 Y.8655 Z2.9755 B34.899 C4.744
N9730 X.3598 Y.8248 Z2.9753 B34.587 C6.655
N9735 X.3604 Y.8046 Z2.9755 B34.414 C7.762
N9740 X.3622 Y.7786 Z2.9756 B34.129 C9.614
N9745 X.3651 Y.7554 Z2.9758 B33.858 C11.482
N9750 X.3695 Y.7303 Z2.9759 B33.554 C13.745
N9755 X.3761 Y.7012 Z2.9761 B33.206 C16.622
N9760 X.3828 Y.6782 Z2.9763 B32.936 C19.117
N9765 X.3909 Y.6554 Z2.9765 B32.683 C21.737
N9770 X.3999 Y.6332 B32.455 C24.433
N9775 X.4099 Y.612 B32.257 C27.141
N9780 X.4216 Y.5901 Z2.9766 B32.075 C30.112
N9785 X.4348 Y.5685 B31.923 C33.177
N9790 X.4487 Y.5483 Z2.9768 B31.808 C36.2
N9795 X.4636 Y.5288 B31.728 C39.241
N9800 X.4796 Y.5102 B31.681 C42.286
N9805 X.496 Y.4931 Z2.9767 B31.668 C45.261
N9810 X.5148 Y.4755 B31.689 C48.483
N9815 X.5318 Y.4613 Z2.9768 B31.734 C51.239
N9820 X.5464 Y.4501 Z2.9767 B31.795 C53.509
N9825 X.5666 Y.436 Z2.9766 B31.906 C56.546
N9830 X.5901 Y.4216 B32.067 C59.881
N9835 X.6089 Y.4115 Z2.9765 B32.222 C62.433
N9840 X.6309 Y.401 Z2.9764 B32.423 C65.24
N9845 X.6476 Y.3939 B32.593 C67.295
N9850 X.6673 Y.3865 Z2.9763 B32.806 C69.624
N9855 X.6933 Y.3783 Z2.9762 B33.102 C72.487
N9860 X.7143 Y.3729 Z2.976 B33.351 C74.65
N9865 X.7474 Y.3662 Z2.9758 B33.746 C77.744
N9870 X.7697 Y.3631 Z2.9757 B34.005 C79.601
N9875 X.7968 Y.3607 Z2.9755 B34.316 C81.662
N9880 X.8252 Y.3596 Z2.9754 B34.604 C83.471
N9885 X.8846 Y.359 Z2.9756 B35.139 C86.555
N9890 X.9554 B35.142 C86.739
N9895 X1.0262 Y.3589 B35.146 C86.923
N9900 X1.097 B35.149 C87.106
N9905 X1.1679 B35.153 C87.29
N9910 X1.2387 Z2.9757 B35.157 C87.474
N9915 X1.3095 B35.161 C87.657
N9920 X1.3803 B35.166 C87.841
N9925 X1.4512 B35.171 C88.024
N9930 X1.522 B35.176 C88.208
N9935 X1.5928 B35.182 C88.391
N9940 X1.6636 Y.3588 B35.187 C88.575
N9945 X1.7345 B35.193 C88.758
N9950 X1.8053 B35.2 C88.941
N9955 X1.8761 B35.206 C89.125
N9960 X1.9469 B35.213 C89.308
N9965 X2.0178 B35.22 C89.491
N9970 X2.0886 B35.228 C89.674
N9975 X2.1594 B35.235 C89.857
N9980 X2.2303 B35.243 C90.04
N9985 X2.3011 B35.251 C90.223
N9990 X2.3719 Y.3587 B35.26 C90.406
N9995 X2.4427 B35.269 C90.588
N10000 X2.5136 Z2.9758 B35.278 C90.771
N10005 X2.5844 B35.287 C90.953
N10010 X2.6552 B35.297 C91.136
N10015 X2.726 B35.307 C91.318
N10020 X2.7969 B35.317 C91.5
N10025 X2.8677 B35.327 C91.682
N10030 X2.9385 B35.338 C91.864
N10035 X3.0093 Y.3586 B35.349 C92.046
N10040 X3.0802 B35.36 C92.228
N10045 X3.1326 Y.3593 Z2.9755 B34.915 C94.632
N10050 X3.1718 Y.3598 Z2.9753 B34.613 C96.468
N10055 X3.2003 Y.3607 Z2.9755 B34.345 C98.162
N10060 X3.2273 Y.363 Z2.9756 B34.043 C100.164
N10065 X3.2505 Y.3661 Z2.9757 B33.77 C102.097
N10070 X3.2698 Y.3696 Z2.9759 B33.538 C103.855
N10075 X3.2989 Y.3761 Z2.9761 B33.195 C106.705
N10080 X3.3219 Y.3829 Z2.9763 B32.93 C109.157
N10085 X3.3446 Y.3909 Z2.9765 B32.679 C111.761
N10090 X3.3668 Y.3999 B32.452 C114.462
N10095 X3.3881 Y.4099 B32.255 C117.161
N10100 X3.4099 Y.4216 Z2.9766 B32.073 C120.125
N10105 X3.4315 Y.4348 B31.922 C123.184
N10110 X3.4517 Y.4487 Z2.9768 B31.808 C126.204
N10115 X3.4712 Y.4636 B31.728 C129.243
N10120 X3.4898 Y.4796 B31.682 C132.286
N10125 X3.5069 Y.496 Z2.9767 B31.669 C135.261
N10130 X3.5245 Y.5148 B31.69 C138.483
N10135 X3.5387 Y.5318 Z2.9768 B31.736 C141.239
N10140 X3.5499 Y.5464 Z2.9767 B31.798 C143.509
N10145 X3.564 Y.5666 Z2.9766 B31.909 C146.546
N10150 X3.5784 Y.5901 B32.071 C149.881
N10155 X3.5885 Y.6089 Z2.9765 B32.226 C152.433
N10160 X3.599 Y.6309 Z2.9764 B32.427 C155.241
N10165 X3.6061 Y.6476 B32.597 C157.295
N10170 X3.6135 Y.6673 Z2.9763 B32.811 C159.626
N10175 X3.6217 Y.6933 Z2.9762 B33.106 C162.487
N10180 X3.6271 Y.7143 Z2.976 B33.355 C164.651
N10185 X3.6338 Y.7474 Z2.9758 B33.751 C167.744
N10190 X3.6369 Y.7697 Z2.9757 B34.009 C169.6
N10195 X3.6393 Y.7968 Z2.9755 B34.32 C171.661
N10200 X3.6404 Y.8252 Z2.9754 B34.608 C173.471
N10205 X3.641 Y.8846 Z2.9756 B35.141 C176.556
N10210 X3.6411 Y.9554 B35.144 C176.739
N10215 Y1.0262 B35.148 C176.923
N10220 Y1.097 B35.151 C177.107
N10225 Y1.1679 B35.155 C177.29
N10230 Y1.2387 Z2.9757 B35.159 C177.474
N10235 Y1.3095 B35.163 C177.658
N10240 Y1.3803 B35.168 C177.841
N10245 Y1.4512 B35.173 C178.025
N10250 Y1.522 B35.178 C178.208
N10255 Y1.5928 B35.184 C178.392
N10260 X3.6412 Y1.6636 B35.189 C178.575
N10265 Y1.7345 B35.195 C178.758
N10270 Y1.8053 B35.202 C178.942
N10275 Y1.8761 B35.208 C179.125
N10280 Y1.9469 B35.215 C179.308
N10285 Y2.0178 B35.222 C179.491
N10290 Y2.0886 B35.23 C179.674
N10295 Y2.1594 B35.237 C179.857
N10300 Y2.2302 B35.245 C180.04
N10305 X3.6413 Y2.3011 B35.254 C180.223
N10310 Y2.3719 B35.262 C180.406
N10315 Y2.4427 Z2.9758 B35.271 C180.588
N10320 Y2.5136 B35.28 C180.771
N10325 Y2.5844 B35.289 C180.953
N10330 Y2.6552 B35.299 C181.136
N10335 Y2.726 B35.309 C181.318
N10340 Y2.7969 B35.319 C181.5
N10345 Y2.8677 B35.329 C181.682
N10350 Y2.9385 B35.34 C181.864
N10355 X3.6414 Y3.0093 B35.351 C182.046
N10360 Y3.0802 B35.362 C182.228
N10365 X3.6407 Y3.1326 Z2.9755 B34.919 C184.632
N10370 X3.6402 Y3.1718 Z2.9753 B34.617 C186.468
N10375 X3.6393 Y3.2003 Z2.9755 B34.35 C188.162
N10380 X3.6372 Y3.2258 Z2.9756 B34.067 C190.047
N10385 X3.6341 Y3.2491 Z2.9757 B33.792 C191.978
N10390 X3.6304 Y3.2698 Z2.9759 B33.544 C193.854
N10395 X3.6239 Y3.2988 Z2.9761 B33.202 C196.704
N10400 X3.6171 Y3.3219 Z2.9763 B32.937 C199.161
N10405 X3.6091 Y3.3446 Z2.9765 B32.686 C201.775
N10410 X3.6001 Y3.3668 B32.459 C204.468
N10415 X3.59 Y3.3884 B32.259 C207.214
N10420 X3.578 Y3.4106 Z2.9766 B32.076 C210.216
N10425 X3.5652 Y3.4315 B31.93 C213.181
N10430 X3.5513 Y3.4517 Z2.9768 B31.816 C216.201
N10435 X3.5364 Y3.4712 B31.736 C219.24
N10440 X3.5204 Y3.4898 Z2.9767 B31.689 C222.284
N10445 X3.504 Y3.5069 B31.677 C225.258
N10450 X3.4852 Y3.5245 B31.698 C228.478
N10455 X3.4682 Y3.5387 Z2.9768 B31.744 C231.236
N10460 X3.4536 Y3.5499 Z2.9767 B31.805 C233.506
N10465 X3.4334 Y3.564 Z2.9766 B31.916 C236.543
N10470 X3.4099 Y3.5784 B32.077 C239.878
N10475 X3.3911 Y3.5885 Z2.9765 B32.232 C242.428
N10480 X3.3692 Y3.599 Z2.9764 B32.432 C245.23
N10485 X3.3524 Y3.6061 B32.603 C247.294
N10490 X3.3327 Y3.6135 Z2.9763 B32.817 C249.626
N10495 X3.3067 Y3.6217 Z2.9762 B33.112 C252.485
N10500 X3.2778 Y3.6289 Z2.976 B33.453 C255.416
N10505 X3.2543 Y3.6335 Z2.9759 B33.736 C257.598
N10510 X3.2295 Y3.637 Z2.9757 B34.028 C259.679
N10515 X3.2032 Y3.6393 Z2.9756 B34.328 C261.661
N10520 X3.1748 Y3.6404 Z2.9755 B34.617 C263.474
N10525 X3.1154 Y3.6411 Z2.9756 B35.152 C266.558
N10530 X3.0446 B35.155 C266.742
N10535 X2.9738 B35.158 C266.925
N10540 X2.903 Z2.9757 B35.162 C267.109
N10545 X2.8321 B35.166 C267.292
N10550 X2.7613 B35.17 C267.476
N10555 X2.6905 B35.174 C267.659
N10560 X2.6197 B35.179 C267.843
N10565 X2.5488 B35.184 C268.026
N10570 X2.478 Y3.6412 B35.189 C268.21
N10575 X2.4072 B35.195 C268.393
N10580 X2.3364 B35.2 C268.576
N10585 X2.2655 B35.206 C268.76
N10590 X2.1947 B35.213 C268.943
N10595 X2.1239 B35.219 C269.126
N10600 X2.0531 B35.226 C269.309
N10605 X1.9822 B35.233 C269.492
N10610 X1.9114 B35.241 C269.675
N10615 X1.8406 B35.249 C269.858
N10620 X1.7697 Y3.6413 B35.257 C270.041
N10625 X1.6989 Z2.9758 B35.265 C270.224
N10630 X1.6281 B35.273 C270.406
N10635 X1.5573 B35.282 C270.589
N10640 X1.4864 B35.291 C270.771
N10645 X1.4156 B35.301 C270.954
N10650 X1.3448 B35.31 C271.136
N10655 X1.274 B35.32 C271.318
N10660 X1.2031 B35.33 C271.501
N10665 X1.1323 Y3.6414 B35.341 C271.683
N10670 X1.0615 B35.351 C271.864
N10675 X.9907 B35.362 C272.046
N10680 X.9198 B35.374 C272.228
N10685 X.8674 Y3.6408 Z2.9755 B34.929 C274.631
N10690 X.8282 Y3.6403 Z2.9753 B34.626 C276.467
N10695 X.7997 Y3.6393 Z2.9755 B34.358 C278.161
N10700 X.7742 Y3.6372 Z2.9756 B34.074 C280.048
N10705 X.7509 Y3.6342 Z2.9758 B33.799 C281.979
N10710 X.7302 Y3.6304 Z2.9759 B33.55 C283.855
N10715 X.7011 Y3.6239 Z2.9761 B33.207 C286.71
N10720 X.6781 Y3.6171 Z2.9763 B32.941 C289.177
N10725 X.6553 Y3.6091 Z2.9764 B32.691 C291.778
N10730 X.6332 Y3.6001 Z2.9765 B32.464 C294.47
N10735 X.6119 Y3.5901 B32.266 C297.18
N10740 X.5901 Y3.5784 Z2.9766 B32.085 C300.123
N10745 X.5685 Y3.5652 B31.934 C303.185
N10750 X.5483 Y3.5513 Z2.9768 B31.82 C306.205
N10755 X.5288 Y3.5364 B31.739 C309.243
N10760 X.5102 Y3.5204 B31.693 C312.287
N10765 X.493 Y3.504 Z2.9767 B31.68 C315.26
N10770 X.4755 Y3.4852 B31.7 C318.482
N10775 X.4613 Y3.4682 Z2.9768 B31.746 C321.239
N10780 X.4501 Y3.4536 Z2.9767 B31.807 C323.509
N10785 X.436 Y3.4334 Z2.9766 B31.918 C326.546
N10790 X.4216 Y3.4099 B32.079 C329.881
N10795 X.4114 Y3.3911 Z2.9765 B32.234 C332.433
N10800 X.401 Y3.3691 Z2.9764 B32.434 C335.241
N10805 X.3939 Y3.3524 B32.603 C337.296
N10810 X.3865 Y3.3327 Z2.9763 B32.817 C339.627
N10815 X.3783 Y3.3067 Z2.9762 B33.111 C342.488
N10820 X.3729 Y3.2857 Z2.976 B33.36 C344.652
N10825 X.3662 Y3.2526 Z2.9758 B33.754 C347.746
N10830 X.3631 Y3.2303 Z2.9757 B34.013 C349.602
N10835 X.3607 Y3.2032 Z2.9755 B34.323 C351.662
N10840 X.3596 Y3.1748 Z2.9754 B34.61 C353.474
N10845 X.359 Y3.1154 Z2.9756 B35.143 C356.558
N10850 X.3589 Y3.0458 B35.146 C356.739
N10855 Y2.9761 B35.149 C356.92
N10860 Y2.9064 B35.152 C357.101
N10865 Y2.8368 B35.156 C357.282
N10870 Y2.7671 B35.16 C357.463
N10875 Y2.6975 B35.164 C357.644
N10880 Y2.6278 B35.168 C357.825
N10885 Y2.5581 B35.173 C358.006
N10890 Y2.4885 Z2.9757 B35.178 C358.187
N10895 X.3588 Y2.4188 B35.183 C358.368
N10900 Y2.3491 B35.188 C358.549
N10905 Y2.2795 B35.194 C358.729
N10910 Y2.2098 B35.2 C358.91
N10915 Y2.1401 B35.206 C359.091
N10920 Y2.0705 B35.213 C359.271
N10925 Y2.0008 B35.22 C359.452
N10930 X.36 Y1.9669 Z2.9774
N10935 X.3617 Y1.9501 Z2.9799
N10940 X.3645 Y1.9338 Z2.9838
N10945 X.3685 Y1.9182 Z2.9894
N10950 X.374 Y1.9042 Z2.9973
N10955 X.3812 Y1.8928 Z3.0075
N10960 X.39 Y1.8851 Z3.0199
N10965 X.3996 Y1.8823 Z3.0336
N10970 G255
 
( OPER: VARIABLE_AXIS_GUIDING_CURVES_OUTSIDE_CHAMFER )
N10975 G53 G00 Z0.0
N10980 G00 B40.312 C458.675
N10985 G234 H03
N10990 G54 G90 X.3812 Y3.8014 Z3.0285
N10995 G01 X.3856 Y3.7906 Z3.0156 F10.
N11000 X.3945 Y3.7809 Z3.0042
N11005 X.4069 Y3.7729 Z2.9948
N11010 X.4215 Y3.7666 Z2.9876
N11015 X.4374 Y3.762 Z2.9823
N11020 X.4542 Y3.7586 Z2.9786
N11025 X.4714 Y3.7564 Z2.9763
N11030 X.4887 Y3.7551 Z2.975
N11035 X.5062 Y3.7546 Z2.9746
N11040 X.5558 Y3.7539 Z2.9747 B40.825 C454.576
N11045 X.5608 B40.861 C454.291
N11050 X.6306 B40.858 C454.105
N11055 X.7004 B40.856 C453.918
N11060 X.7701 B40.854 C453.732
N11065 X.8399 B40.852 C453.545
N11070 X.9097 B40.85 C453.358
N11075 X.9794 B40.849 C453.171
N11080 X1.0492 B40.848 C452.985
N11085 X1.119 B40.847 C452.798
N11090 X1.1888 C452.611
N11095 X1.2585 C452.424
N11100 X1.3283 C452.237
N11105 X1.3981 C452.05
N11110 X1.4678 B40.848 C451.863
N11115 X1.5376 B40.849 C451.676
N11120 X1.6074 B40.851 C451.49
N11125 X1.6771 B40.852 C451.303
N11130 X1.7469 B40.855 C451.116
N11135 X1.8167 B40.857 C450.929
N11140 X1.8864 B40.859 C450.742
N11145 X1.9562 B40.862 C450.555
N11150 X2.026 B40.866 C450.368
N11155 X2.0957 B40.869 C450.181
N11160 X2.1655 B40.873 C449.995
N11165 X2.2353 B40.877 C449.808
N11170 X2.305 B40.882 C449.621
N11175 X2.3748 B40.886 C449.434
N11180 X2.4446 B40.891 C449.248
N11185 X2.5143 B40.897 C449.061
N11190 X2.5841 B40.902 C448.875
N11195 X2.6539 B40.908 C448.688
N11200 X2.7236 B40.914 C448.502
N11205 X2.7934 B40.921 C448.316
N11210 X2.8632 B40.928 C448.129
N11215 X2.9329 B40.935 C447.943
N11220 X3.0027 B40.942 C447.757
N11225 X3.0725 B40.95 C447.571
N11230 X3.1422 B40.958 C447.385
N11235 X3.212 B40.966 C447.199
N11240 X3.2818 Z2.9746 B40.975 C447.013
N11245 X3.3515 B40.984 C446.828
N11250 X3.4213 B40.993 C446.642
N11255 X3.4569 Y3.7544 Z2.9745 B40.656 C444.142
N11260 X3.4926 Y3.7548 Z2.9743 B40.374 C441.61
N11265 X3.5141 Y3.7545 Z2.9744 B40.117 C439.335
N11270 X3.5338 Y3.7529 Z2.9743 B39.868 C436.911
N11275 X3.5534 Y3.7497 B39.607 C434.152
N11280 X3.5727 Y3.745 Z2.9742 B39.343 C431.002
N11285 X3.5926 Y3.7386 Z2.9741 B39.08 C427.361
N11290 X3.6062 Y3.7331 B38.91 C424.591
N11295 X3.6256 Y3.7237 B38.688 C420.274
N11300 X3.6397 Y3.7155 Z2.974 B38.564 C416.893
N11305 X3.6564 Y3.7039 B38.444 C412.487
N11310 X3.6716 Y3.6914 Z2.9741 B38.37 C408.157
N11315 X3.6804 Y3.6834 Z2.974 B38.362 C405.478
N11320 X3.6927 Y3.6702 Z2.9739 B38.374 C401.459
N11325 X3.7042 Y3.6562 Z2.974 B38.433 C397.486
N11330 X3.7147 Y3.641 Z2.9741 B38.536 C393.458
N11335 X3.7243 Y3.6247 B38.682 C389.491
N11340 X3.7332 Y3.6062 Z2.9742 B38.887 C385.407
N11345 X3.7402 Y3.5884 B39.109 C381.823
N11350 X3.7444 Y3.5753 Z2.9743 B39.283 C379.444
N11355 X3.7496 Y3.5547 B39.566 C376.033
N11360 X3.7522 Y3.5383 Z2.9744 B39.786 C373.677
N11365 X3.7542 Y3.5148 Z2.9746 B40.087 C370.74
N11370 X3.7546 Y3.5027 B40.239 C369.39
N11375 X3.7539 Y3.4392 Z2.9747 B40.861 C364.287
N11380 Y3.3694 B40.858 C364.098
N11385 Y3.2995 B40.855 C363.909
N11390 Y3.2297 B40.853 C363.721
N11395 Y3.1599 B40.851 C363.532
N11400 Y3.0901 B40.849 C363.343
N11405 Y3.0203 B40.847 C363.155
N11410 Y2.9505 B40.846 C362.966
N11415 Y2.8807 B40.845 C362.777
N11420 Y2.8109 B40.844 C362.588
N11425 Y2.7411 C362.399
N11430 Y2.6713 C362.21
N11435 Y2.6015 C362.021
N11440 Y2.5317 B40.845 C361.832
N11445 Y2.4619 C361.643
N11450 Y2.392 B40.847 C361.454
N11455 Y2.3222 B40.848 C361.265
N11460 Y2.2524 B40.85 C361.077
N11465 Y2.1826 B40.852 C360.888
N11470 Y2.1128 B40.854 C360.699
N11475 Y2.043 B40.857 C360.51
N11480 Y1.9732 B40.86 C360.321
N11485 Y1.9034 B40.864 C360.132
N11490 Y1.8336 B40.867 C359.943
N11495 Y1.7638 B40.871 C359.754
N11500 Y1.694 B40.875 C359.566
N11505 Y1.6242 B40.88 C359.377
N11510 Y1.5544 B40.885 C359.188
N11515 Y1.4845 B40.89 C358.999
N11520 Y1.4147 B40.896 C358.811
N11525 Y1.3449 B40.901 C358.622
N11530 Y1.2751 B40.907 C358.434
N11535 Y1.2053 B40.914 C358.246
N11540 Y1.1355 B40.921 C358.057
N11545 Y1.0657 B40.928 C357.869
N11550 Y.9959 B40.935 C357.681
N11555 Y.9261 B40.943 C357.493
N11560 Y.8563 B40.951 C357.305
N11565 Y.7865 Z2.9746 B40.959 C357.117
N11570 Y.7167 B40.967 C356.929
N11575 Y.6469 B40.976 C356.741
N11580 Y.5771 B40.985 C356.554
N11585 X3.7544 Y.5415 Z2.9745 B40.646 C354.015
N11590 X3.7549 Y.5059 Z2.9743 B40.362 C351.444
N11595 X3.7544 Y.4845 Z2.9744 B40.108 C349.172
N11600 X3.7529 Y.4662 Z2.9743 B39.878 C346.914
N11605 X3.7495 Y.4457 B39.605 C344.007
N11610 X3.7453 Y.4281 Z2.9742 B39.363 C341.126
N11615 X3.7401 Y.4115 Z2.9741 B39.145 C338.147
N11620 X3.7331 Y.3938 B38.922 C334.587
N11625 X3.7241 Y.3752 Z2.974 B38.714 C330.452
N11630 X3.7143 Y.3584 B38.562 C326.411
N11635 X3.7035 Y.3429 B38.454 C322.322
N11640 X3.6928 Y.33 Z2.9741 B38.397 C318.622
N11645 X3.6813 Y.3175 Z2.9739 B38.376 C314.881
N11650 X3.666 Y.3037 Z2.974 B38.397 C310.241
N11655 X3.6546 Y.2946 B38.454 C307.067
N11660 X3.6427 Y.2864 B38.539 C303.892
N11665 X3.6249 Y.2758 Z2.9741 B38.696 C299.571
N11670 X3.6057 Y.2666 Z2.9743 B38.903 C295.341
N11675 X3.5879 Y.2596 Z2.9742 B39.131 C291.753
N11680 X3.576 Y.2558 Z2.9743 B39.29 C289.57
N11685 X3.5538 Y.2503 B39.593 C285.922
N11690 X3.5383 Y.2478 Z2.9744 B39.804 C283.679
N11695 X3.5142 Y.2457 Z2.9746 B40.113 C280.665
N11700 X3.5049 Y.2454 Z2.9745 B40.228 C279.635
N11705 X3.4771 Y.2456 Z2.9746 B40.488 C277.263
N11710 X3.4391 Y.2462 Z2.9747 B40.879 C274.275
N11715 X3.3693 B40.875 C274.086
N11720 X3.2995 B40.872 C273.897
N11725 X3.2297 Y.2461 B40.87 C273.708
N11730 X3.1598 B40.867 C273.519
N11735 X3.09 B40.865 C273.33
N11740 X3.0202 B40.863 C273.141
N11745 X2.9504 B40.861 C272.951
N11750 X2.8805 B40.86 C272.762
N11755 X2.8107 B40.859 C272.573
N11760 X2.7409 C272.384
N11765 X2.6711 B40.858 C272.194
N11770 X2.6012 C272.005
N11775 X2.5314 B40.859 C271.816
N11780 X2.4616 C271.626
N11785 X2.3918 B40.86 C271.437
N11790 X2.322 B40.861 C271.248
N11795 X2.2521 B40.863 C271.058
N11800 X2.1823 B40.865 C270.869
N11805 X2.1125 B40.867 C270.68
N11810 X2.0427 B40.869 C270.49
N11815 X1.9728 B40.872 C270.301
N11820 X1.903 B40.875 C270.112
N11825 X1.8332 B40.878 C269.922
N11830 X1.7634 B40.882 C269.733
N11835 X1.6935 B40.886 C269.544
N11840 X1.6237 B40.89 C269.355
N11845 X1.5539 B40.895 C269.166
N11850 X1.4841 B40.9 C268.977
N11855 X1.4143 B40.905 C268.788
N11860 X1.3444 B40.911 C268.599
N11865 X1.2746 B40.917 C268.41
N11870 X1.2048 B40.923 C268.221
N11875 X1.135 B40.929 C268.032
N11880 X1.0651 B40.936 C267.844
N11885 X.9953 B40.943 C267.655
N11890 X.9255 B40.951 C267.467
N11895 X.8557 B40.958 C267.278
N11900 X.7858 B40.966 C267.09
N11905 X.716 B40.975 C266.902
N11910 X.6462 B40.983 C266.713
N11915 X.5764 Z2.9746 B40.992 C266.525
N11920 X.5403 Y.2456 Z2.9745 B40.644 C263.931
N11925 X.5043 Y.2451 Z2.9743 B40.355 C261.303
N11930 X.4856 Y.2455 Z2.9744 B40.134 C259.316
N11935 X.4674 Y.247 Z2.9743 B39.898 C257.053
N11940 X.4496 Y.2498 Z2.9742 B39.66 C254.559
N11945 X.4327 Y.2536 B39.433 C251.9
N11950 X.4211 Y.2569 B39.276 C249.893
N11955 X.4048 Y.2624 Z2.9741 B39.063 C246.828
N11960 X.3891 Y.269 Z2.974 B38.87 C243.553
N11965 X.3742 Y.2764 Z2.9741 B38.712 C240.276
N11970 X.3581 Y.286 B38.558 C236.343
N11975 X.3495 Y.2917 Z2.974 B38.499 C234.1
N11980 X.3377 Y.3007 B38.428 C230.863
N11985 X.3255 Y.3113 B38.387 C227.321
N11990 X.3166 Y.3197 Z2.9739 B38.378 C224.573
N11995 X.3028 Y.3351 Z2.974 B38.403 C219.953
N12000 X.295 Y.3448 B38.456 C217.201
N12005 X.286 Y.358 B38.544 C213.71
N12010 X.2758 Y.3751 Z2.9741 B38.697 C209.556
N12015 X.2671 Y.3931 Z2.9742 B38.89 C205.6
N12020 X.2608 Y.4089 Z2.9741 B39.086 C202.372
N12025 X.2556 Y.4247 Z2.9743 B39.296 C199.436
N12030 X.2503 Y.4462 B39.588 C195.914
N12035 X.2478 Y.4618 Z2.9744 B39.797 C193.675
N12040 X.2457 Y.4868 Z2.9746 B40.116 C190.561
N12045 X.2453 Y.4966 Z2.9745 B40.238 C189.469
N12050 X.246 Y.5541 Z2.9747 B40.815 C184.683
N12055 Y.624 B40.813 C184.488
N12060 Y.6939 B40.811 C184.292
N12065 Y.7638 B40.81 C184.097
N12070 Y.8337 B40.809 C183.902
N12075 Y.9036 B40.808 C183.706
N12080 Y.9735 C183.511
N12085 Y1.0434 C183.316
N12090 Y1.1132 C183.12
N12095 X.2461 Y1.1831 B40.809 C182.925
N12100 Y1.253 C182.729
N12105 Y1.3229 B40.811 C182.534
N12110 Y1.3928 B40.812 C182.338
N12115 Y1.4627 B40.814 C182.143
N12120 Y1.5326 B40.816 C181.947
N12125 Y1.6025 B40.819 C181.752
N12130 Y1.6724 B40.822 C181.556
N12135 Y1.7422 B40.825 C181.361
N12140 Y1.8121 B40.829 C181.165
N12145 Y1.882 B40.833 C180.97
N12150 Y1.9519 B40.837 C180.774
N12155 Y2.0218 B40.841 C180.579
N12160 Y2.0917 B40.846 C180.384
N12165 Y2.1616 B40.851 C180.188
N12170 Y2.2315 B40.857 C179.993
N12175 Y2.3013 B40.863 C179.798
N12180 Y2.3712 B40.869 C179.603
N12185 Y2.4411 B40.876 C179.408
N12190 Y2.511 B40.882 C179.213
N12195 Y2.5809 B40.89 C179.018
N12200 Y2.6508 B40.897 C178.823
N12205 Y2.7207 B40.905 C178.628
N12210 Y2.7906 B40.913 C178.433
N12215 Y2.8605 B40.922 C178.239
N12220 Y2.9303 B40.93 C178.044
N12225 Y3.0002 B40.94 C177.85
N12230 Y3.0701 B40.949 C177.656
N12235 Y3.14 B40.959 C177.461
N12240 Y3.2099 B40.969 C177.267
N12245 Y3.2798 B40.979 C177.073
N12250 Y3.3497 B40.99 C176.879
N12255 Y3.4196 B41.001 C176.686
N12260 X.2456 Y3.4569 Z2.9745 B40.656 C174.12
N12265 X.2451 Y3.4942 Z2.9743 B40.369 C171.521
N12270 X.2456 Y3.5152 Z2.9744 B40.126 C169.359
N12275 X.2472 Y3.534 Z2.9743 B39.884 C167.059
N12280 X.2507 Y3.5547 Z2.9744 B39.6 C164.11
N12285 X.255 Y3.5729 Z2.9742 B39.35 C161.122
N12290 X.2609 Y3.5913 Z2.9741 B39.101 C157.698
N12295 X.2669 Y3.6063 B38.912 C154.67
N12300 X.2746 Y3.6224 Z2.974 B38.728 C151.103
N12305 X.2841 Y3.639 B38.57 C147.107
N12310 X.2965 Y3.657 B38.437 C142.371
N12315 X.3093 Y3.6724 B38.371 C137.944
N12320 X.3207 Y3.6844 Z2.9739 B38.362 C134.27
N12325 X.333 Y3.6954 Z2.974 B38.386 C130.565
N12330 X.345 Y3.7051 B38.441 C127.149
N12335 X.358 Y3.7141 B38.529 C123.71
N12340 X.3751 Y3.7242 Z2.9741 B38.682 C119.544
N12345 X.3938 Y3.7332 Z2.9742 B38.885 C115.445
N12350 X.4103 Y3.7397 B39.092 C112.104
N12355 X.4247 Y3.7444 Z2.9743 B39.284 C109.445
N12360 X.4439 Y3.7492 B39.545 C106.27
N12365 X.4615 Y3.7522 Z2.9744 B39.783 C103.715
N12370 X.4869 Y3.7543 Z2.9746 B40.11 C100.544
N12375 X.4973 Y3.7547 Z2.9745 B40.236 C99.419
N12380 X.5062 Y3.7546 Z2.9746 B40.312 C98.675
N12385 X.5392 Y3.7556 Z2.9764
N12390 X.5555 Y3.7574 Z2.9788
N12395 X.5714 Y3.7602 Z2.9824
N12400 X.5864 Y3.7645 Z2.9878
N12405 X.5998 Y3.7706 Z2.9953
N12410 X.6102 Y3.7787 Z3.0052
N12415 X.6164 Y3.7885 Z3.017
N12420 X.6174 Y3.799 Z3.0296
N12425 G255
 
( OPER: VARIABLE_STREAMLINE_INSIDE_FILLET )
N12430 G53 G00 Z0.0
N12435 G00 B0.0 C0.0
N12440 G234 H03
N12445 G54 G90 X2. Y2. Z5.
N12450 X.943 Y2.8211 Z3.2201 C98.675
N12455 Z1.8029
N12460 G01 Z1.5703 F10.
N12465 X.9424 Y2.8184 Z1.5536
N12470 X.9412 Y2.8108 Z1.5385
N12475 X.9399 Y2.7994 Z1.5261
N12480 X.9388 Y2.7854 Z1.5166
N12485 X.9379 Y2.7699 Z1.5098
N12490 X.9372 Y2.7536 Z1.5051
N12495 X.9368 Y2.7369 Z1.5021
N12500 X.9366 Y2.72 Z1.5005
N12505 X.9365 Y2.703 Z1.5001
N12510 Y1.297
N12515 X.9382 Y1.251
N12520 X.9464 Y1.2056
N12525 X.9604 Y1.1617
N12530 X.9799 Y1.12
N12535 X1.0047 Y1.0811
N12540 X1.0342 Y1.0458
N12545 X1.0681 Y1.0146
N12550 X1.106 Y.9884
N12555 X1.1306 Y.9748
N12560 X1.1701 Y.9576
N12565 X1.2115 Y.9455
N12570 X1.254 Y.9383
N12575 X1.297 Y.9365
N12580 X2.703
N12585 X2.749 Y.9382
N12590 X2.7944 Y.9464
N12595 X2.8383 Y.9604
N12600 X2.88 Y.9799
N12605 X2.9189 Y1.0047
N12610 X2.9542 Y1.0342
N12615 X2.9854 Y1.0681
N12620 X3.0116 Y1.106
N12625 X3.0252 Y1.1306
N12630 X3.0424 Y1.1701
N12635 X3.0545 Y1.2115
N12640 X3.0617 Y1.254
N12645 X3.0635 Y1.297
N12650 Y2.703
N12655 X3.0618 Y2.749
N12660 X3.0536 Y2.7944
N12665 X3.0396 Y2.8383
N12670 X3.0201 Y2.88
N12675 X2.9953 Y2.9189
N12680 X2.9658 Y2.9542
N12685 X2.9319 Y2.9854
N12690 X2.894 Y3.0116
N12695 X2.8694 Y3.0252
N12700 X2.8299 Y3.0424
N12705 X2.7885 Y3.0545
N12710 X2.746 Y3.0617
N12715 X2.703 Y3.0635
N12720 X1.297
N12725 X1.251 Y3.0618
N12730 X1.2056 Y3.0536
N12735 X1.1617 Y3.0396
N12740 X1.12 Y3.0201
N12745 X1.0811 Y2.9953
N12750 X1.0458 Y2.9658
N12755 X1.0146 Y2.9319
N12760 X.9884 Y2.894
N12765 X.9748 Y2.8694
N12770 X.956 Y2.8255
N12775 X.9435 Y2.7795
N12780 X.9376 Y2.7322
N12785 X.9365 Y2.703
N12790 X.9355 Y2.6692 Z1.5021
N12795 X.9354 Y2.6525 Z1.5051
N12800 Y2.6362 Z1.5098
N12805 X.9357 Y2.6207 Z1.5166
N12810 X.9364 Y2.6067 Z1.5261
N12815 X.9372 Y2.5953 Z1.5385
N12820 X.9381 Y2.5877 Z1.5536
N12825 X.9386 Y2.585 Z1.5703
N12830 Z1.8501
N12835 G00 Z3.2201
N12840 X3. Y2. Z5.
N12845 G255
 
( OPER: VARIABLE_STREAMLINE_OVAL_FILLET )
N12850 G53 G00 Z0.0
N12855 G00 B82.875 C180.
N12860 G234 H03
N12865 G54 G90 X0.0 Y2. Z5.
N12870 X-.7391 Y1.6358 Z1.6219
N12875 X.0167
N12880 G01 X.1591 F10.
N12885 X.2568 Y1.6199 Z1.608
N12890 X.2733 Y1.6173 Z1.6057
N12895 X.2883 Y1.6097 Z1.6033
N12900 X.3006 Y1.5983 Z1.6014
N12905 X.3101 Y1.5843 Z1.6
N12910 X.3169 Y1.5688 Z1.5992
N12915 X.3217 Y1.5525 Z1.5988
N12920 X.3247 Y1.5358
N12925 X.3263 Y1.5189 Z1.5991
N12930 X.3269 Y1.5019 Z1.5997
N12935 X.3273 Y1.4483 Z1.6029
N12940 X.3287 Y1.3958 Z1.6141
N12945 X.331 Y1.3453 Z1.6326
N12950 X.3342 Y1.298 Z1.6579
N12955 X.3381 Y1.2548 Z1.6896
N12960 X.3428 Y1.2165 Z1.727
N12965 X.3481 Y1.1839 Z1.7694
N12970 X.3539 Y1.1576 Z1.816
N12975 X.3601 Y1.1383 Z1.8657
N12980 X.3666 Y1.1261 Z1.9177
N12985 X.3733 Y1.1215 Z1.9708
N12990 X.3799 Y1.1244 Z2.024
N12995 X.3865 Y1.1349 Z2.0763
N13000 X.3928 Y1.1527 Z2.1267
N13005 X.3986 Y1.1779 Z2.1737
N13010 X.4017 Y1.1945 Z2.1984
N13015 X.4066 Y1.2269 Z2.2376
N13020 X.4109 Y1.2647 Z2.2719
N13025 X.4145 Y1.3068 Z2.3008
N13030 X.4174 Y1.3524 Z2.3239
N13035 X.4195 Y1.4007 Z2.3407
N13040 X.4208 Y1.4509 Z2.3509
N13045 X.4211 Y1.5019 Z2.3538
N13050 Y2.5019
N13055 X.4207 Y2.5555 Z2.3505
N13060 X.4193 Y2.6081 Z2.3393
N13065 X.417 Y2.6585 Z2.3208
N13070 X.4139 Y2.7058 Z2.2955
N13075 X.4099 Y2.749 Z2.2638
N13080 X.4052 Y2.7873 Z2.2264
N13085 X.3999 Y2.82 Z2.184
N13090 X.3941 Y2.8462 Z2.1375
N13095 X.3879 Y2.8656 Z2.0877
N13100 X.3814 Y2.8777 Z2.0358
N13105 X.3748 Y2.8824 Z1.9826
N13110 X.3681 Y2.8794 Z1.9294
N13115 X.3616 Y2.8689 Z1.8771
N13120 X.3553 Y2.8511 Z1.8268
N13125 X.3494 Y2.8259 Z1.7797
N13130 X.3463 Y2.8094 Z1.7551
N13135 X.3414 Y2.777 Z1.7158
N13140 X.3371 Y2.7392 Z1.6815
N13145 X.3335 Y2.6971 Z1.6526
N13150 X.3306 Y2.6515 Z1.6295
N13155 X.3285 Y2.6032 Z1.6128
N13160 X.3272 Y2.553 Z1.6026
N13165 X.3269 Y2.5019 Z1.5997
N13170 Y1.5019
N13175 X.3257 Y1.4914 Z1.5999
N13180 X.3219 Y1.4817 Z1.6008
N13185 X.3156 Y1.4733 Z1.6021
N13190 X.3074 Y1.4668 Z1.6039
N13195 X.2982 Y1.4621 Z1.6057
N13200 X.2883 Y1.4587 Z1.6076
N13205 X.2782 Y1.4564 Z1.6095
N13210 X.2678 Y1.4551 Z1.6112
N13215 X.1585 Y1.4506 Z1.6266
N13220 X.0167
N13225 G00 X-.7391
N13230 X-2. Y2. Z5.
N13235 G255
 
( OPER: VARIABLE_STREAMLINE_OVAL_OPPOSITE_FILLET )
N13240 G53 G00 Z0.0
N13245 G00 B82.875 C0.0
N13250 G234 H03
N13255 G54 G90 X2. Y2. Z5.
N13260 X4.7349 Y1.4547 Z2.494
N13265 X3.8912 Z2.3885
N13270 G01 X3.6494 Z2.3583 F10.
N13275 X3.6285 Y1.4564 Z2.3563
N13280 X3.6182 Y1.4587 Z2.3555
N13285 X3.6082 Y1.4621 Z2.355
N13290 X3.5988 Y1.4668 Z2.3545
N13295 X3.5904 Y1.4733 Z2.3542
N13300 X3.584 Y1.4817 Z2.3539
N13305 X3.5801 Y1.4914 Z2.3538
N13310 X3.5789 Y1.5019
N13315 Y2.5019
N13320 X3.5793 Y2.5555 Z2.3505
N13325 X3.5807 Y2.6081 Z2.3393
N13330 X3.583 Y2.6585 Z2.3208
N13335 X3.5861 Y2.7058 Z2.2955
N13340 X3.5901 Y2.749 Z2.2638
N13345 X3.5948 Y2.7873 Z2.2264
N13350 X3.6001 Y2.82 Z2.184
N13355 X3.6059 Y2.8462 Z2.1375
N13360 X3.6121 Y2.8656 Z2.0877
N13365 X3.6186 Y2.8777 Z2.0358
N13370 X3.6252 Y2.8824 Z1.9826
N13375 X3.6319 Y2.8794 Z1.9294
N13380 X3.6384 Y2.8689 Z1.8771
N13385 X3.6447 Y2.8511 Z1.8268
N13390 X3.6506 Y2.8259 Z1.7797
N13395 X3.6537 Y2.8094 Z1.7551
N13400 X3.6586 Y2.777 Z1.7158
N13405 X3.6629 Y2.7392 Z1.6815
N13410 X3.6665 Y2.6971 Z1.6526
N13415 X3.6694 Y2.6515 Z1.6295
N13420 X3.6715 Y2.6032 Z1.6128
N13425 X3.6728 Y2.553 Z1.6026
N13430 X3.6731 Y2.5019 Z1.5997
N13435 Y1.5019
N13440 X3.6727 Y1.4483 Z1.6029
N13445 X3.6713 Y1.3958 Z1.6141
N13450 X3.669 Y1.3453 Z1.6326
N13455 X3.6658 Y1.298 Z1.6579
N13460 X3.6619 Y1.2548 Z1.6896
N13465 X3.6572 Y1.2165 Z1.727
N13470 X3.6519 Y1.1839 Z1.7694
N13475 X3.6461 Y1.1576 Z1.816
N13480 X3.6399 Y1.1383 Z1.8657
N13485 X3.6334 Y1.1261 Z1.9177
N13490 X3.6267 Y1.1215 Z1.9708
N13495 X3.6201 Y1.1244 Z2.024
N13500 X3.6135 Y1.1349 Z2.0763
N13505 X3.6072 Y1.1527 Z2.1267
N13510 X3.6014 Y1.1779 Z2.1737
N13515 X3.5983 Y1.1945 Z2.1984
N13520 X3.5938 Y1.224 Z2.2346
N13525 X3.5898 Y1.2581 Z2.2665
N13530 X3.5863 Y1.2959 Z2.2941
N13535 X3.5835 Y1.3368 Z2.3169
N13540 X3.5813 Y1.3803 Z2.3345
N13545 X3.5798 Y1.4256 Z2.3466
N13550 X3.579 Y1.4721 Z2.3526
N13555 X3.5789 Y1.5019 Z2.3538
N13560 X3.5808 Y1.5358 Z2.3552
N13565 X3.5837 Y1.5525 Z2.3559
N13570 X3.5884 Y1.5688 Z2.3567
N13575 X3.5952 Y1.5843 Z2.3576
N13580 X3.6047 Y1.5983 Z2.3586
N13585 X3.6172 Y1.6097 Z2.3597
N13590 X3.6323 Y1.6173 Z2.3611
N13595 X3.6489 Y1.6199 Z2.3629
N13600 X3.8912 Z2.3932
N13605 G00 X4.7349 Z2.4987
N13610 X6. Y2. Z7.
N13615 Z8.
N13620 G255
 
( OPER: ROTARY_FLOOR )
N13625 G53 G00 Z0.0
N13630 G00 B90. C0.0
N13635 G234 H03
N13640 G54 G90 X4.7402 Y2.118 Z.88
N13645 X3.9844
N13650 G01 X3.6149 F10.
N13655 X3.598 Y2.1153
N13660 X3.5826 Y2.1078
N13665 X3.5697 Y2.0965
N13670 X3.5596 Y2.0826
N13675 X3.552 Y2.0672
N13680 X3.5466 Y2.0509
N13685 X3.5429 Y2.0342
N13690 X3.5405 Y2.0171
N13695 X3.5394 Y2.
N13700 X3.537 Y1.9396 C-2.25
N13705 X3.5346 Y1.8792 C-4.5
N13710 X3.5275 Y1.8192 C-6.75
N13715 X3.5204 Y1.7592 C-9.
N13720 X3.5086 Y1.6999 C-11.25
N13725 X3.4968 Y1.6406 C-13.5
N13730 X3.4804 Y1.5825 C-15.75
N13735 X3.464 Y1.5243 C-18.
N13740 X3.4431 Y1.4676 C-20.25
N13745 X3.4222 Y1.4109 C-22.5
N13750 X3.3969 Y1.356 C-24.75
N13755 X3.3716 Y1.3011 C-27.
N13760 X3.3421 Y1.2484 C-29.25
N13765 X3.3125 Y1.1957 C-31.5
N13770 X3.279 Y1.1454 C-33.75
N13775 X3.2454 Y1.0952 C-36.
N13780 X3.208 Y1.0477 C-38.25
N13785 X3.1705 Y1.0003 C-40.5
N13790 X3.1295 Y.9559 C-42.75
N13795 X3.0885 Y.9115 C-45.
N13800 X3.0441 Y.8705 C-47.25
N13805 X2.9997 Y.8295 C-49.5
N13810 X2.9523 Y.792 C-51.75
N13815 X2.9048 Y.7546 C-54.
N13820 X2.8546 Y.721 C-56.25
N13825 X2.8043 Y.6875 C-58.5
N13830 X2.7516 Y.6579 C-60.75
N13835 X2.6989 Y.6284 C-63.
N13840 X2.644 Y.6031 C-65.25
N13845 X2.5891 Y.5778 C-67.5
N13850 X2.5324 Y.5569 C-69.75
N13855 X2.4757 Y.536 C-72.
N13860 X2.4175 Y.5196 C-74.25
N13865 X2.3594 Y.5032 C-76.5
N13870 X2.3001 Y.4914 C-78.75
N13875 X2.2408 Y.4796 C-81.
N13880 X2.1808 Y.4725 C-83.25
N13885 X2.1208 Y.4654 C-85.5
N13890 X2.0604 Y.463 C-87.75
N13895 X2. Y.4606 C-90.
N13900 X1.9396 Y.463 C-92.25
N13905 X1.8792 Y.4654 C-94.5
N13910 X1.8192 Y.4725 C-96.75
N13915 X1.7592 Y.4796 C-99.
N13920 X1.6999 Y.4914 C-101.25
N13925 X1.6406 Y.5032 C-103.5
N13930 X1.5825 Y.5196 C-105.75
N13935 X1.5243 Y.536 C-108.
N13940 X1.4676 Y.5569 C-110.25
N13945 X1.4109 Y.5778 C-112.5
N13950 X1.356 Y.6031 C-114.75
N13955 X1.3011 Y.6284 C-117.
N13960 X1.2484 Y.6579 C-119.25
N13965 X1.1957 Y.6875 C-121.5
N13970 X1.1454 Y.721 C-123.75
N13975 X1.0952 Y.7546 C-126.
N13980 X1.0477 Y.792 C-128.25
N13985 X1.0003 Y.8295 C-130.5
N13990 X.9559 Y.8705 C-132.75
N13995 X.9115 Y.9115 C-135.
N14000 X.8705 Y.9559 C-137.25
N14005 X.8295 Y1.0003 C-139.5
N14010 X.792 Y1.0477 C-141.75
N14015 X.7546 Y1.0952 C-144.
N14020 X.721 Y1.1454 C-146.25
N14025 X.6875 Y1.1957 C-148.5
N14030 X.6579 Y1.2484 C-150.75
N14035 X.6284 Y1.3011 C-153.
N14040 X.6031 Y1.356 C-155.25
N14045 X.5778 Y1.4109 C-157.5
N14050 X.5569 Y1.4676 C-159.75
N14055 X.536 Y1.5243 C-162.
N14060 X.5196 Y1.5825 C-164.25
N14065 X.5032 Y1.6406 C-166.5
N14070 X.4914 Y1.6999 C-168.75
N14075 X.4796 Y1.7592 C-171.
N14080 X.4725 Y1.8192 C-173.25
N14085 X.4654 Y1.8792 C-175.5
N14090 X.463 Y1.9396 C-177.75
N14095 X.4606 Y2. C-180.
N14100 X.463 Y2.0604 C-182.25
N14105 X.4654 Y2.1208 C-184.5
N14110 X.4725 Y2.1808 C-186.75
N14115 X.4796 Y2.2408 C-189.
N14120 X.4914 Y2.3001 C-191.25
N14125 X.5032 Y2.3594 C-193.5
N14130 X.5196 Y2.4175 C-195.75
N14135 X.536 Y2.4757 C-198.
N14140 X.5569 Y2.5324 C-200.25
N14145 X.5778 Y2.5891 C-202.5
N14150 X.6031 Y2.644 C-204.75
N14155 X.6284 Y2.6989 C-207.
N14160 X.6579 Y2.7516 C-209.25
N14165 X.6875 Y2.8043 C-211.5
N14170 X.721 Y2.8546 C-213.75
N14175 X.7546 Y2.9048 C-216.
N14180 X.792 Y2.9523 C-218.25
N14185 X.8295 Y2.9997 C-220.5
N14190 X.8705 Y3.0441 C-222.75
N14195 X.9115 Y3.0885 C-225.
N14200 X.9559 Y3.1295 C-227.25
N14205 X1.0003 Y3.1705 C-229.5
N14210 X1.0477 Y3.208 C-231.75
N14215 X1.0952 Y3.2454 C-234.
N14220 X1.1454 Y3.279 C-236.25
N14225 X1.1957 Y3.3125 C-238.5
N14230 X1.2484 Y3.3421 C-240.75
N14235 X1.3011 Y3.3716 C-243.
N14240 X1.356 Y3.3969 C-245.25
N14245 X1.4109 Y3.4222 C-247.5
N14250 X1.4676 Y3.4431 C-249.75
N14255 X1.5243 Y3.464 C-252.
N14260 X1.5825 Y3.4804 C-254.25
N14265 X1.6406 Y3.4968 C-256.5
N14270 X1.6999 Y3.5086 C-258.75
N14275 X1.7592 Y3.5204 C-261.
N14280 X1.8192 Y3.5275 C-263.25
N14285 X1.8792 Y3.5346 C-265.5
N14290 X1.9396 Y3.537 C-267.75
N14295 X2. Y3.5394 C-270.
N14300 X2.0604 Y3.537 C-272.25
N14305 X2.1208 Y3.5346 C-274.5
N14310 X2.1808 Y3.5275 C-276.75
N14315 X2.2408 Y3.5204 C-279.
N14320 X2.3001 Y3.5086 C-281.25
N14325 X2.3594 Y3.4968 C-283.5
N14330 X2.4175 Y3.4804 C-285.75
N14335 X2.4757 Y3.464 C-288.
N14340 X2.5324 Y3.4431 C-290.25
N14345 X2.5891 Y3.4222 C-292.5
N14350 X2.644 Y3.3969 C-294.75
N14355 X2.6989 Y3.3716 C-297.
N14360 X2.7516 Y3.3421 C-299.25
N14365 X2.8043 Y3.3125 C-301.5
N14370 X2.8546 Y3.279 C-303.75
N14375 X2.9048 Y3.2454 C-306.
N14380 X2.9523 Y3.208 C-308.25
N14385 X2.9997 Y3.1705 C-310.5
N14390 X3.0441 Y3.1295 C-312.75
N14395 X3.0885 Y3.0885 C-315.
N14400 X3.1295 Y3.0441 C-317.25
N14405 X3.1705 Y2.9997 C-319.5
N14410 X3.208 Y2.9523 C-321.75
N14415 X3.2454 Y2.9048 C-324.
N14420 X3.279 Y2.8546 C-326.25
N14425 X3.3125 Y2.8043 C-328.5
N14430 X3.3421 Y2.7516 C-330.75
N14435 X3.3716 Y2.6989 C-333.
N14440 X3.3969 Y2.644 C-335.25
N14445 X3.4222 Y2.5891 C-337.5
N14450 X3.4431 Y2.5324 C-339.75
N14455 X3.464 Y2.4757 C-342.
N14460 X3.4804 Y2.4175 C-344.25
N14465 X3.4968 Y2.3594 C-346.5
N14470 X3.5086 Y2.3001 C-348.75
N14475 X3.5204 Y2.2408 C-351.
N14480 X3.5275 Y2.1808 C-353.25
N14485 X3.5346 Y2.1208 C-355.5
N14490 X3.537 Y2.0604 C-357.75
N14495 X3.5394 Y2. C-360.
N14500 Z.8665
N14505 X3.537 Y2.0604 C-357.75
N14510 X3.5346 Y2.1208 C-355.5
N14515 X3.5275 Y2.1808 C-353.25
N14520 X3.5204 Y2.2408 C-351.
N14525 X3.5086 Y2.3001 C-348.75
N14530 X3.4968 Y2.3594 C-346.5
N14535 X3.4804 Y2.4175 C-344.25
N14540 X3.464 Y2.4757 C-342.
N14545 X3.4431 Y2.5324 C-339.75
N14550 X3.4222 Y2.5891 C-337.5
N14555 X3.3969 Y2.644 C-335.25
N14560 X3.3716 Y2.6989 C-333.
N14565 X3.3421 Y2.7516 C-330.75
N14570 X3.3125 Y2.8043 C-328.5
N14575 X3.279 Y2.8546 C-326.25
N14580 X3.2454 Y2.9048 C-324.
N14585 X3.208 Y2.9523 C-321.75
N14590 X3.1705 Y2.9997 C-319.5
N14595 X3.1295 Y3.0441 C-317.25
N14600 X3.0885 Y3.0885 C-315.
N14605 X3.0441 Y3.1295 C-312.75
N14610 X2.9997 Y3.1705 C-310.5
N14615 X2.9523 Y3.208 C-308.25
N14620 X2.9048 Y3.2454 C-306.
N14625 X2.8546 Y3.279 C-303.75
N14630 X2.8043 Y3.3125 C-301.5
N14635 X2.7516 Y3.3421 C-299.25
N14640 X2.6989 Y3.3716 C-297.
N14645 X2.644 Y3.3969 C-294.75
N14650 X2.5891 Y3.4222 C-292.5
N14655 X2.5324 Y3.4431 C-290.25
N14660 X2.4757 Y3.464 C-288.
N14665 X2.4175 Y3.4804 C-285.75
N14670 X2.3594 Y3.4968 C-283.5
N14675 X2.3001 Y3.5086 C-281.25
N14680 X2.2408 Y3.5204 C-279.
N14685 X2.1808 Y3.5275 C-276.75
N14690 X2.1208 Y3.5346 C-274.5
N14695 X2.0604 Y3.537 C-272.25
N14700 X2. Y3.5394 C-270.
N14705 X1.9396 Y3.537 C-267.75
N14710 X1.8792 Y3.5346 C-265.5
N14715 X1.8192 Y3.5275 C-263.25
N14720 X1.7592 Y3.5204 C-261.
N14725 X1.6999 Y3.5086 C-258.75
N14730 X1.6406 Y3.4968 C-256.5
N14735 X1.5825 Y3.4804 C-254.25
N14740 X1.5243 Y3.464 C-252.
N14745 X1.4676 Y3.4431 C-249.75
N14750 X1.4109 Y3.4222 C-247.5
N14755 X1.356 Y3.3969 C-245.25
N14760 X1.3011 Y3.3716 C-243.
N14765 X1.2484 Y3.3421 C-240.75
N14770 X1.1957 Y3.3125 C-238.5
N14775 X1.1454 Y3.279 C-236.25
N14780 X1.0952 Y3.2454 C-234.
N14785 X1.0477 Y3.208 C-231.75
N14790 X1.0003 Y3.1705 C-229.5
N14795 X.9559 Y3.1295 C-227.25
N14800 X.9115 Y3.0885 C-225.
N14805 X.8705 Y3.0441 C-222.75
N14810 X.8295 Y2.9997 C-220.5
N14815 X.792 Y2.9523 C-218.25
N14820 X.7546 Y2.9048 C-216.
N14825 X.721 Y2.8546 C-213.75
N14830 X.6875 Y2.8043 C-211.5
N14835 X.6579 Y2.7516 C-209.25
N14840 X.6284 Y2.6989 C-207.
N14845 X.6031 Y2.644 C-204.75
N14850 X.5778 Y2.5891 C-202.5
N14855 X.5569 Y2.5324 C-200.25
N14860 X.536 Y2.4757 C-198.
N14865 X.5196 Y2.4175 C-195.75
N14870 X.5032 Y2.3594 C-193.5
N14875 X.4914 Y2.3001 C-191.25
N14880 X.4796 Y2.2408 C-189.
N14885 X.4725 Y2.1808 C-186.75
N14890 X.4654 Y2.1208 C-184.5
N14895 X.463 Y2.0604 C-182.25
N14900 X.4606 Y2. C-180.
N14905 X.463 Y1.9396 C-177.75
N14910 X.4654 Y1.8792 C-175.5
N14915 X.4725 Y1.8192 C-173.25
N14920 X.4796 Y1.7592 C-171.
N14925 X.4914 Y1.6999 C-168.75
N14930 X.5032 Y1.6406 C-166.5
N14935 X.5196 Y1.5825 C-164.25
N14940 X.536 Y1.5243 C-162.
N14945 X.5569 Y1.4676 C-159.75
N14950 X.5778 Y1.4109 C-157.5
N14955 X.6031 Y1.356 C-155.25
N14960 X.6284 Y1.3011 C-153.
N14965 X.6579 Y1.2484 C-150.75
N14970 X.6875 Y1.1957 C-148.5
N14975 X.721 Y1.1454 C-146.25
N14980 X.7546 Y1.0952 C-144.
N14985 X.792 Y1.0477 C-141.75
N14990 X.8295 Y1.0003 C-139.5
N14995 X.8705 Y.9559 C-137.25
N15000 X.9115 Y.9115 C-135.
N15005 X.9559 Y.8705 C-132.75
N15010 X1.0003 Y.8295 C-130.5
N15015 X1.0477 Y.792 C-128.25
N15020 X1.0952 Y.7546 C-126.
N15025 X1.1454 Y.721 C-123.75
N15030 X1.1957 Y.6875 C-121.5
N15035 X1.2484 Y.6579 C-119.25
N15040 X1.3011 Y.6284 C-117.
N15045 X1.356 Y.6031 C-114.75
N15050 X1.4109 Y.5778 C-112.5
N15055 X1.4676 Y.5569 C-110.25
N15060 X1.5243 Y.536 C-108.
N15065 X1.5825 Y.5196 C-105.75
N15070 X1.6406 Y.5032 C-103.5
N15075 X1.6999 Y.4914 C-101.25
N15080 X1.7592 Y.4796 C-99.
N15085 X1.8192 Y.4725 C-96.75
N15090 X1.8792 Y.4654 C-94.5
N15095 X1.9396 Y.463 C-92.25
N15100 X2. Y.4606 C-90.
N15105 X2.0604 Y.463 C-87.75
N15110 X2.1208 Y.4654 C-85.5
N15115 X2.1808 Y.4725 C-83.25
N15120 X2.2408 Y.4796 C-81.
N15125 X2.3001 Y.4914 C-78.75
N15130 X2.3594 Y.5032 C-76.5
N15135 X2.4175 Y.5196 C-74.25
N15140 X2.4757 Y.536 C-72.
N15145 X2.5324 Y.5569 C-69.75
N15150 X2.5891 Y.5778 C-67.5
N15155 X2.644 Y.6031 C-65.25
N15160 X2.6989 Y.6284 C-63.
N15165 X2.7516 Y.6579 C-60.75
N15170 X2.8043 Y.6875 C-58.5
N15175 X2.8546 Y.721 C-56.25
N15180 X2.9048 Y.7546 C-54.
N15185 X2.9523 Y.792 C-51.75
N15190 X2.9997 Y.8295 C-49.5
N15195 X3.0441 Y.8705 C-47.25
N15200 X3.0885 Y.9115 C-45.
N15205 X3.1295 Y.9559 C-42.75
N15210 X3.1705 Y1.0003 C-40.5
N15215 X3.208 Y1.0477 C-38.25
N15220 X3.2454 Y1.0952 C-36.
N15225 X3.279 Y1.1454 C-33.75
N15230 X3.3125 Y1.1957 C-31.5
N15235 X3.3421 Y1.2484 C-29.25
N15240 X3.3716 Y1.3011 C-27.
N15245 X3.3969 Y1.356 C-24.75
N15250 X3.4222 Y1.4109 C-22.5
N15255 X3.4431 Y1.4676 C-20.25
N15260 X3.464 Y1.5243 C-18.
N15265 X3.4804 Y1.5825 C-15.75
N15270 X3.4968 Y1.6406 C-13.5
N15275 X3.5086 Y1.6999 C-11.25
N15280 X3.5204 Y1.7592 C-9.
N15285 X3.5275 Y1.8192 C-6.75
N15290 X3.5346 Y1.8792 C-4.5
N15295 X3.537 Y1.9396 C-2.25
N15300 X3.5394 Y2. C0.0
N15305 Z.8529
N15310 X3.537 Y1.9396 C-2.25
N15315 X3.5346 Y1.8792 C-4.5
N15320 X3.5275 Y1.8192 C-6.75
N15325 X3.5204 Y1.7592 C-9.
N15330 X3.5086 Y1.6999 C-11.25
N15335 X3.4968 Y1.6406 C-13.5
N15340 X3.4804 Y1.5825 C-15.75
N15345 X3.464 Y1.5243 C-18.
N15350 X3.4431 Y1.4676 C-20.25
N15355 X3.4222 Y1.4109 C-22.5
N15360 X3.3969 Y1.356 C-24.75
N15365 X3.3716 Y1.3011 C-27.
N15370 X3.3421 Y1.2484 C-29.25
N15375 X3.3125 Y1.1957 C-31.5
N15380 X3.279 Y1.1454 C-33.75
N15385 X3.2454 Y1.0952 C-36.
N15390 X3.208 Y1.0477 C-38.25
N15395 X3.1705 Y1.0003 C-40.5
N15400 X3.1295 Y.9559 C-42.75
N15405 X3.0885 Y.9115 C-45.
N15410 X3.0441 Y.8705 C-47.25
N15415 X2.9997 Y.8295 C-49.5
N15420 X2.9523 Y.792 C-51.75
N15425 X2.9048 Y.7546 C-54.
N15430 X2.8546 Y.721 C-56.25
N15435 X2.8043 Y.6875 C-58.5
N15440 X2.7516 Y.6579 C-60.75
N15445 X2.6989 Y.6284 C-63.
N15450 X2.644 Y.6031 C-65.25
N15455 X2.5891 Y.5778 C-67.5
N15460 X2.5324 Y.5569 C-69.75
N15465 X2.4757 Y.536 C-72.
N15470 X2.4175 Y.5196 C-74.25
N15475 X2.3594 Y.5032 C-76.5
N15480 X2.3001 Y.4914 C-78.75
N15485 X2.2408 Y.4796 C-81.
N15490 X2.1808 Y.4725 C-83.25
N15495 X2.1208 Y.4654 C-85.5
N15500 X2.0604 Y.463 C-87.75
N15505 X2. Y.4606 C-90.
N15510 X1.9396 Y.463 C-92.25
N15515 X1.8792 Y.4654 C-94.5
N15520 X1.8192 Y.4725 C-96.75
N15525 X1.7592 Y.4796 C-99.
N15530 X1.6999 Y.4914 C-101.25
N15535 X1.6406 Y.5032 C-103.5
N15540 X1.5825 Y.5196 C-105.75
N15545 X1.5243 Y.536 C-108.
N15550 X1.4676 Y.5569 C-110.25
N15555 X1.4109 Y.5778 C-112.5
N15560 X1.356 Y.6031 C-114.75
N15565 X1.3011 Y.6284 C-117.
N15570 X1.2484 Y.6579 C-119.25
N15575 X1.1957 Y.6875 C-121.5
N15580 X1.1454 Y.721 C-123.75
N15585 X1.0952 Y.7546 C-126.
N15590 X1.0477 Y.792 C-128.25
N15595 X1.0003 Y.8295 C-130.5
N15600 X.9559 Y.8705 C-132.75
N15605 X.9115 Y.9115 C-135.
N15610 X.8705 Y.9559 C-137.25
N15615 X.8295 Y1.0003 C-139.5
N15620 X.792 Y1.0477 C-141.75
N15625 X.7546 Y1.0952 C-144.
N15630 X.721 Y1.1454 C-146.25
N15635 X.6875 Y1.1957 C-148.5
N15640 X.6579 Y1.2484 C-150.75
N15645 X.6284 Y1.3011 C-153.
N15650 X.6031 Y1.356 C-155.25
N15655 X.5778 Y1.4109 C-157.5
N15660 X.5569 Y1.4676 C-159.75
N15665 X.536 Y1.5243 C-162.
N15670 X.5196 Y1.5825 C-164.25
N15675 X.5032 Y1.6406 C-166.5
N15680 X.4914 Y1.6999 C-168.75
N15685 X.4796 Y1.7592 C-171.
N15690 X.4725 Y1.8192 C-173.25
N15695 X.4654 Y1.8792 C-175.5
N15700 X.463 Y1.9396 C-177.75
N15705 X.4606 Y2. C-180.
N15710 X.463 Y2.0604 C-182.25
N15715 X.4654 Y2.1208 C-184.5
N15720 X.4725 Y2.1808 C-186.75
N15725 X.4796 Y2.2408 C-189.
N15730 X.4914 Y2.3001 C-191.25
N15735 X.5032 Y2.3594 C-193.5
N15740 X.5196 Y2.4175 C-195.75
N15745 X.536 Y2.4757 C-198.
N15750 X.5569 Y2.5324 C-200.25
N15755 X.5778 Y2.5891 C-202.5
N15760 X.6031 Y2.644 C-204.75
N15765 X.6284 Y2.6989 C-207.
N15770 X.6579 Y2.7516 C-209.25
N15775 X.6875 Y2.8043 C-211.5
N15780 X.721 Y2.8546 C-213.75
N15785 X.7546 Y2.9048 C-216.
N15790 X.792 Y2.9523 C-218.25
N15795 X.8295 Y2.9997 C-220.5
N15800 X.8705 Y3.0441 C-222.75
N15805 X.9115 Y3.0885 C-225.
N15810 X.9559 Y3.1295 C-227.25
N15815 X1.0003 Y3.1705 C-229.5
N15820 X1.0477 Y3.208 C-231.75
N15825 X1.0952 Y3.2454 C-234.
N15830 X1.1454 Y3.279 C-236.25
N15835 X1.1957 Y3.3125 C-238.5
N15840 X1.2484 Y3.3421 C-240.75
N15845 X1.3011 Y3.3716 C-243.
N15850 X1.356 Y3.3969 C-245.25
N15855 X1.4109 Y3.4222 C-247.5
N15860 X1.4676 Y3.4431 C-249.75
N15865 X1.5243 Y3.464 C-252.
N15870 X1.5825 Y3.4804 C-254.25
N15875 X1.6406 Y3.4968 C-256.5
N15880 X1.6999 Y3.5086 C-258.75
N15885 X1.7592 Y3.5204 C-261.
N15890 X1.8192 Y3.5275 C-263.25
N15895 X1.8792 Y3.5346 C-265.5
N15900 X1.9396 Y3.537 C-267.75
N15905 X2. Y3.5394 C-270.
N15910 X2.0604 Y3.537 C-272.25
N15915 X2.1208 Y3.5346 C-274.5
N15920 X2.1808 Y3.5275 C-276.75
N15925 X2.2408 Y3.5204 C-279.
N15930 X2.3001 Y3.5086 C-281.25
N15935 X2.3594 Y3.4968 C-283.5
N15940 X2.4175 Y3.4804 C-285.75
N15945 X2.4757 Y3.464 C-288.
N15950 X2.5324 Y3.4431 C-290.25
N15955 X2.5891 Y3.4222 C-292.5
N15960 X2.644 Y3.3969 C-294.75
N15965 X2.6989 Y3.3716 C-297.
N15970 X2.7516 Y3.3421 C-299.25
N15975 X2.8043 Y3.3125 C-301.5
N15980 X2.8546 Y3.279 C-303.75
N15985 X2.9048 Y3.2454 C-306.
N15990 X2.9523 Y3.208 C-308.25
N15995 X2.9997 Y3.1705 C-310.5
N16000 X3.0441 Y3.1295 C-312.75
N16005 X3.0885 Y3.0885 C-315.
N16010 X3.1295 Y3.0441 C-317.25
N16015 X3.1705 Y2.9997 C-319.5
N16020 X3.208 Y2.9523 C-321.75
N16025 X3.2454 Y2.9048 C-324.
N16030 X3.279 Y2.8546 C-326.25
N16035 X3.3125 Y2.8043 C-328.5
N16040 X3.3421 Y2.7516 C-330.75
N16045 X3.3716 Y2.6989 C-333.
N16050 X3.3969 Y2.644 C-335.25
N16055 X3.4222 Y2.5891 C-337.5
N16060 X3.4431 Y2.5324 C-339.75
N16065 X3.464 Y2.4757 C-342.
N16070 X3.4804 Y2.4175 C-344.25
N16075 X3.4968 Y2.3594 C-346.5
N16080 X3.5086 Y2.3001 C-348.75
N16085 X3.5204 Y2.2408 C-351.
N16090 X3.5275 Y2.1808 C-353.25
N16095 X3.5346 Y2.1208 C-355.5
N16100 X3.537 Y2.0604 C-357.75
N16105 X3.5394 Y2. C-360.
N16110 Z.8394
N16115 X3.537 Y2.0604 C-357.75
N16120 X3.5346 Y2.1208 C-355.5
N16125 X3.5275 Y2.1808 C-353.25
N16130 X3.5204 Y2.2408 C-351.
N16135 X3.5086 Y2.3001 C-348.75
N16140 X3.4968 Y2.3594 C-346.5
N16145 X3.4804 Y2.4175 C-344.25
N16150 X3.464 Y2.4757 C-342.
N16155 X3.4431 Y2.5324 C-339.75
N16160 X3.4222 Y2.5891 C-337.5
N16165 X3.3969 Y2.644 C-335.25
N16170 X3.3716 Y2.6989 C-333.
N16175 X3.3421 Y2.7516 C-330.75
N16180 X3.3125 Y2.8043 C-328.5
N16185 X3.279 Y2.8546 C-326.25
N16190 X3.2454 Y2.9048 C-324.
N16195 X3.208 Y2.9523 C-321.75
N16200 X3.1705 Y2.9997 C-319.5
N16205 X3.1295 Y3.0441 C-317.25
N16210 X3.0885 Y3.0885 C-315.
N16215 X3.0441 Y3.1295 C-312.75
N16220 X2.9997 Y3.1705 C-310.5
N16225 X2.9523 Y3.208 C-308.25
N16230 X2.9048 Y3.2454 C-306.
N16235 X2.8546 Y3.279 C-303.75
N16240 X2.8043 Y3.3125 C-301.5
N16245 X2.7516 Y3.3421 C-299.25
N16250 X2.6989 Y3.3716 C-297.
N16255 X2.644 Y3.3969 C-294.75
N16260 X2.5891 Y3.4222 C-292.5
N16265 X2.5324 Y3.4431 C-290.25
N16270 X2.4757 Y3.464 C-288.
N16275 X2.4175 Y3.4804 C-285.75
N16280 X2.3594 Y3.4968 C-283.5
N16285 X2.3001 Y3.5086 C-281.25
N16290 X2.2408 Y3.5204 C-279.
N16295 X2.1808 Y3.5275 C-276.75
N16300 X2.1208 Y3.5346 C-274.5
N16305 X2.0604 Y3.537 C-272.25
N16310 X2. Y3.5394 C-270.
N16315 X1.9396 Y3.537 C-267.75
N16320 X1.8792 Y3.5346 C-265.5
N16325 X1.8192 Y3.5275 C-263.25
N16330 X1.7592 Y3.5204 C-261.
N16335 X1.6999 Y3.5086 C-258.75
N16340 X1.6406 Y3.4968 C-256.5
N16345 X1.5825 Y3.4804 C-254.25
N16350 X1.5243 Y3.464 C-252.
N16355 X1.4676 Y3.4431 C-249.75
N16360 X1.4109 Y3.4222 C-247.5
N16365 X1.356 Y3.3969 C-245.25
N16370 X1.3011 Y3.3716 C-243.
N16375 X1.2484 Y3.3421 C-240.75
N16380 X1.1957 Y3.3125 C-238.5
N16385 X1.1454 Y3.279 C-236.25
N16390 X1.0952 Y3.2454 C-234.
N16395 X1.0477 Y3.208 C-231.75
N16400 X1.0003 Y3.1705 C-229.5
N16405 X.9559 Y3.1295 C-227.25
N16410 X.9115 Y3.0885 C-225.
N16415 X.8705 Y3.0441 C-222.75
N16420 X.8295 Y2.9997 C-220.5
N16425 X.792 Y2.9523 C-218.25
N16430 X.7546 Y2.9048 C-216.
N16435 X.721 Y2.8546 C-213.75
N16440 X.6875 Y2.8043 C-211.5
N16445 X.6579 Y2.7516 C-209.25
N16450 X.6284 Y2.6989 C-207.
N16455 X.6031 Y2.644 C-204.75
N16460 X.5778 Y2.5891 C-202.5
N16465 X.5569 Y2.5324 C-200.25
N16470 X.536 Y2.4757 C-198.
N16475 X.5196 Y2.4175 C-195.75
N16480 X.5032 Y2.3594 C-193.5
N16485 X.4914 Y2.3001 C-191.25
N16490 X.4796 Y2.2408 C-189.
N16495 X.4725 Y2.1808 C-186.75
N16500 X.4654 Y2.1208 C-184.5
N16505 X.463 Y2.0604 C-182.25
N16510 X.4606 Y2. C-180.
N16515 X.463 Y1.9396 C-177.75
N16520 X.4654 Y1.8792 C-175.5
N16525 X.4725 Y1.8192 C-173.25
N16530 X.4796 Y1.7592 C-171.
N16535 X.4914 Y1.6999 C-168.75
N16540 X.5032 Y1.6406 C-166.5
N16545 X.5196 Y1.5825 C-164.25
N16550 X.536 Y1.5243 C-162.
N16555 X.5569 Y1.4676 C-159.75
N16560 X.5778 Y1.4109 C-157.5
N16565 X.6031 Y1.356 C-155.25
N16570 X.6284 Y1.3011 C-153.
N16575 X.6579 Y1.2484 C-150.75
N16580 X.6875 Y1.1957 C-148.5
N16585 X.721 Y1.1454 C-146.25
N16590 X.7546 Y1.0952 C-144.
N16595 X.792 Y1.0477 C-141.75
N16600 X.8295 Y1.0003 C-139.5
N16605 X.8705 Y.9559 C-137.25
N16610 X.9115 Y.9115 C-135.
N16615 X.9559 Y.8705 C-132.75
N16620 X1.0003 Y.8295 C-130.5
N16625 X1.0477 Y.792 C-128.25
N16630 X1.0952 Y.7546 C-126.
N16635 X1.1454 Y.721 C-123.75
N16640 X1.1957 Y.6875 C-121.5
N16645 X1.2484 Y.6579 C-119.25
N16650 X1.3011 Y.6284 C-117.
N16655 X1.356 Y.6031 C-114.75
N16660 X1.4109 Y.5778 C-112.5
N16665 X1.4676 Y.5569 C-110.25
N16670 X1.5243 Y.536 C-108.
N16675 X1.5825 Y.5196 C-105.75
N16680 X1.6406 Y.5032 C-103.5
N16685 X1.6999 Y.4914 C-101.25
N16690 X1.7592 Y.4796 C-99.
N16695 X1.8192 Y.4725 C-96.75
N16700 X1.8792 Y.4654 C-94.5
N16705 X1.9396 Y.463 C-92.25
N16710 X2. Y.4606 C-90.
N16715 X2.0604 Y.463 C-87.75
N16720 X2.1208 Y.4654 C-85.5
N16725 X2.1808 Y.4725 C-83.25
N16730 X2.2408 Y.4796 C-81.
N16735 X2.3001 Y.4914 C-78.75
N16740 X2.3594 Y.5032 C-76.5
N16745 X2.4175 Y.5196 C-74.25
N16750 X2.4757 Y.536 C-72.
N16755 X2.5324 Y.5569 C-69.75
N16760 X2.5891 Y.5778 C-67.5
N16765 X2.644 Y.6031 C-65.25
N16770 X2.6989 Y.6284 C-63.
N16775 X2.7516 Y.6579 C-60.75
N16780 X2.8043 Y.6875 C-58.5
N16785 X2.8546 Y.721 C-56.25
N16790 X2.9048 Y.7546 C-54.
N16795 X2.9523 Y.792 C-51.75
N16800 X2.9997 Y.8295 C-49.5
N16805 X3.0441 Y.8705 C-47.25
N16810 X3.0885 Y.9115 C-45.
N16815 X3.1295 Y.9559 C-42.75
N16820 X3.1705 Y1.0003 C-40.5
N16825 X3.208 Y1.0477 C-38.25
N16830 X3.2454 Y1.0952 C-36.
N16835 X3.279 Y1.1454 C-33.75
N16840 X3.3125 Y1.1957 C-31.5
N16845 X3.3421 Y1.2484 C-29.25
N16850 X3.3716 Y1.3011 C-27.
N16855 X3.3969 Y1.356 C-24.75
N16860 X3.4222 Y1.4109 C-22.5
N16865 X3.4431 Y1.4676 C-20.25
N16870 X3.464 Y1.5243 C-18.
N16875 X3.4804 Y1.5825 C-15.75
N16880 X3.4968 Y1.6406 C-13.5
N16885 X3.5086 Y1.6999 C-11.25
N16890 X3.5204 Y1.7592 C-9.
N16895 X3.5275 Y1.8192 C-6.75
N16900 X3.5346 Y1.8792 C-4.5
N16905 X3.537 Y1.9396 C-2.25
N16910 X3.5394 Y2. C0.0
N16915 Z.8259
N16920 X3.537 Y1.9396 C-2.25
N16925 X3.5346 Y1.8792 C-4.5
N16930 X3.5275 Y1.8192 C-6.75
N16935 X3.5204 Y1.7592 C-9.
N16940 X3.5086 Y1.6999 C-11.25
N16945 X3.4968 Y1.6406 C-13.5
N16950 X3.4804 Y1.5825 C-15.75
N16955 X3.464 Y1.5243 C-18.
N16960 X3.4431 Y1.4676 C-20.25
N16965 X3.4222 Y1.4109 C-22.5
N16970 X3.3969 Y1.356 C-24.75
N16975 X3.3716 Y1.3011 C-27.
N16980 X3.3421 Y1.2484 C-29.25
N16985 X3.3125 Y1.1957 C-31.5
N16990 X3.279 Y1.1454 C-33.75
N16995 X3.2454 Y1.0952 C-36.
N17000 X3.208 Y1.0477 C-38.25
N17005 X3.1705 Y1.0003 C-40.5
N17010 X3.1295 Y.9559 C-42.75
N17015 X3.0885 Y.9115 C-45.
N17020 X3.0441 Y.8705 C-47.25
N17025 X2.9997 Y.8295 C-49.5
N17030 X2.9523 Y.792 C-51.75
N17035 X2.9048 Y.7546 C-54.
N17040 X2.8546 Y.721 C-56.25
N17045 X2.8043 Y.6875 C-58.5
N17050 X2.7516 Y.6579 C-60.75
N17055 X2.6989 Y.6284 C-63.
N17060 X2.644 Y.6031 C-65.25
N17065 X2.5891 Y.5778 C-67.5
N17070 X2.5324 Y.5569 C-69.75
